;FLAVOR:Marlin
;TIME:7564
;Filament used: 5.22565m
;Layer height: 0.2
;MINX:64
;MINY:39.2
;MINZ:0.2
;MAXX:171
;MAXY:148.71
;MAXZ:5
;Generated with Cura_SteamEngine master
M140 S50
M105
M190 S50
M104 S200
M105
M109 S200
M82 ;absolute extrusion mode
; Ender 3 Custom Start G-code
G92 E0 ; Reset Extruder
G28 ; Home all axes
G1 Z2.0 F3000 ; Move Z Axis up little to prevent scratching of Heat Bed
G1 X0.1 Y20 Z0.3 F5000.0 ; Move to start position
G1 X0.1 Y200.0 Z0.3 F1500.0 E15 ; Draw the first line
G1 X0.4 Y200.0 Z0.3 F5000.0 ; Move to side a little
G1 X0.4 Y20 Z0.3 F1500.0 E30 ; Draw the second line
G92 E0 ; Reset Extruder
G1 Z2.0 F3000 ; Move Z Axis up little to prevent scratching of Heat Bed
G1 X5 Y20 Z0.3 F5000.0 ; Move over to prevent blob squish
G92 E0
G92 E0
G1 F1500 E-5
;LAYER_COUNT:25
;LAYER:0
M107
G0 F6000 X66.679 Y44.986 Z0.2
;TYPE:SKIRT
G1 F1500 E0
G1 F1200 X66.821 Y44.794 E0.00794
G1 X67.467 Y44 E0.04199
G1 X67.705 Y43.734 E0.05386
G1 X68.38 Y43.044 E0.08596
G1 X68.744 Y42.713 E0.10233
G1 X68.914 Y42.565 E0.10982
G1 X69.803 Y41.868 E0.1474
G1 X70.077 Y41.675 E0.15854
G1 X71.089 Y41.041 E0.19826
G1 X71.373 Y40.884 E0.20906
G1 X72.092 Y40.521 E0.23585
G1 X72.194 Y40.474 E0.23958
G1 X72.712 Y40.251 E0.25834
G1 X72.917 Y40.169 E0.26568
G1 X73.805 Y39.857 E0.29699
G1 X74.019 Y39.792 E0.30443
G1 X74.866 Y39.571 E0.33354
G1 X75.145 Y39.51 E0.34304
G1 X76.031 Y39.354 E0.37296
G1 X76.299 Y39.318 E0.38195
G1 X77.305 Y39.23 E0.41554
G1 X77.817 Y39.212 E0.43258
G1 X78.724 Y39.2 E0.46275
G1 X156.299 Y39.2 E3.04291
G1 X157.095 Y39.21 E3.06938
G1 X157.434 Y39.22 E3.08066
G1 X157.724 Y39.233 E3.09032
G1 X158.436 Y39.288 E3.11407
G1 X158.672 Y39.314 E3.12197
G1 X159.513 Y39.44 E3.15025
G1 X159.719 Y39.479 E3.15722
G1 X160.482 Y39.652 E3.18325
G1 X160.945 Y39.78 E3.19922
G1 X161.148 Y39.841 E3.20627
G1 X162.085 Y40.17 E3.2393
G1 X162.284 Y40.25 E3.24644
G1 X163.06 Y40.597 E3.27471
G1 X163.351 Y40.741 E3.28551
G1 X164.214 Y41.217 E3.31829
G1 X164.415 Y41.34 E3.32613
G1 X165.168 Y41.845 E3.35628
G1 X165.358 Y41.984 E3.36411
G1 X166.235 Y42.698 E3.40173
G1 X166.503 Y42.94 E3.41374
G1 X167.055 Y43.474 E3.43928
G1 X167.107 Y43.528 E3.44177
G1 X167.508 Y43.968 E3.46157
G1 X167.66 Y44.144 E3.46931
G1 X168.279 Y44.931 E3.50261
G1 X168.468 Y45.195 E3.51341
G1 X169.144 Y46.264 E3.55548
G1 X169.307 Y46.558 E3.56666
G1 X169.655 Y47.24 E3.59212
G1 X169.704 Y47.345 E3.59598
G1 X169.949 Y47.912 E3.61652
G1 X170.031 Y48.117 E3.62386
G1 X170.345 Y49.012 E3.65541
G1 X170.405 Y49.21 E3.66229
G1 X170.613 Y49.998 E3.6894
G1 X170.679 Y50.293 E3.69945
G1 X170.845 Y51.225 E3.73094
G1 X170.881 Y51.492 E3.7399
G1 X170.97 Y52.495 E3.77339
G1 X170.979 Y52.707 E3.78045
G1 X170.988 Y53.008 E3.79047
G1 X171 Y53.902 E3.8202
G1 X170.999 Y102.627 E5.4408
G1 X170.99 Y103.29 E5.46286
G1 X170.98 Y103.634 E5.4743
G1 X170.967 Y103.924 E5.48396
G1 X170.912 Y104.636 E5.50771
G1 X170.886 Y104.872 E5.51561
G1 X170.76 Y105.713 E5.54389
G1 X170.721 Y105.919 E5.55086
G1 X170.548 Y106.682 E5.57689
G1 X170.42 Y107.145 E5.59286
G1 X170.359 Y107.348 E5.59991
G1 X170.03 Y108.285 E5.63294
G1 X169.95 Y108.484 E5.64008
G1 X169.82 Y108.794 E5.65126
G1 X169.767 Y108.915 E5.65565
G1 X169.52 Y109.441 E5.67498
G1 X169.344 Y109.791 E5.68801
G1 X168.216 Y112.113 E5.77387
G1 X167.171 Y114.425 E5.85826
G1 X166.207 Y116.731 E5.94139
G1 X165.29 Y119.108 E6.02612
G1 X164.46 Y121.463 E6.10917
G1 X163.699 Y123.831 E6.1919
G1 X162.984 Y126.291 E6.27711
G1 X162.359 Y128.693 E6.35966
G1 X161.791 Y131.156 E6.44373
G1 X161.293 Y133.629 E6.52763
G1 X160.981 Y135.513 E6.59115
G1 X160.793 Y136.581 E6.62721
G1 X160.726 Y136.93 E6.63903
G1 X160.638 Y137.35 E6.65331
G1 X160.416 Y138.23 E6.68349
G1 X160.358 Y138.425 E6.69026
G1 X160.211 Y138.881 E6.70619
G1 X159.999 Y139.454 E6.72652
G1 X159.881 Y139.748 E6.73705
G1 X159.457 Y140.679 E6.77108
G1 X159.309 Y140.967 E6.78185
G1 X158.873 Y141.736 E6.81125
G1 X158.762 Y141.915 E6.81825
G1 X158.236 Y142.689 E6.84938
G1 X157.982 Y143.03 E6.86352
G1 X157.288 Y143.871 E6.89979
G1 X157.174 Y143.996 E6.90542
G1 X156.587 Y144.593 E6.93326
G1 X156.262 Y144.899 E6.94811
G1 X155.435 Y145.603 E6.98423
G1 X155.265 Y145.734 E6.99137
G1 X154.614 Y146.2 E7.018
G1 X154.343 Y146.379 E7.0288
G1 X153.467 Y146.9 E7.0627
G1 X153.179 Y147.054 E7.07356
G1 X152.335 Y147.46 E7.10471
G1 X152.086 Y147.567 E7.11373
G1 X151.126 Y147.928 E7.14784
G1 X150.798 Y148.034 E7.1593
G1 X149.946 Y148.272 E7.18873
G1 X149.688 Y148.333 E7.19754
G1 X148.624 Y148.53 E7.23353
G1 X148.245 Y148.581 E7.24625
G1 X147.443 Y148.659 E7.27305
G1 X146.956 Y148.682 E7.28927
G1 X146.36 Y148.697 E7.3091
G1 X146.085 Y148.7 E7.31825
G1 X89.009 Y148.71 E9.2166
G1 X88.37 Y148.701 E9.23786
G1 X87.696 Y148.671 E9.2603
G1 X87.405 Y148.649 E9.27
G1 X86.925 Y148.602 E9.28604
G1 X86.658 Y148.57 E9.29499
G1 X85.701 Y148.412 E9.32725
G1 X85.34 Y148.336 E9.33952
G1 X84.47 Y148.116 E9.36937
G1 X84.275 Y148.058 E9.37613
G1 X83.819 Y147.911 E9.39207
G1 X83.234 Y147.695 E9.41281
G1 X82.931 Y147.573 E9.42367
G1 X81.983 Y147.137 E9.45838
G1 X81.701 Y146.991 E9.46894
G1 X80.961 Y146.571 E9.49724
G1 X80.782 Y146.46 E9.50425
G1 X80 Y145.928 E9.5357
G1 X79.661 Y145.675 E9.54977
G1 X78.863 Y145.019 E9.58413
G1 X78.738 Y144.906 E9.58974
G1 X78.106 Y144.287 E9.61916
G1 X77.8 Y143.962 E9.63401
G1 X77.063 Y143.092 E9.67193
G1 X76.928 Y142.915 E9.67933
G1 X76.485 Y142.29 E9.70481
G1 X76.308 Y142.021 E9.71552
G1 X75.79 Y141.15 E9.74923
G1 X75.629 Y140.848 E9.76061
G1 X75.203 Y139.953 E9.79358
G1 X75.105 Y139.721 E9.80196
G1 X74.768 Y138.814 E9.83414
G1 X74.662 Y138.485 E9.84563
G1 X74.399 Y137.519 E9.87893
G1 X74.325 Y137.189 E9.89018
G1 X74.224 Y136.687 E9.90721
G1 X74.132 Y136.152 E9.92527
G1 X73.893 Y134.657 E9.97562
G1 X73.422 Y132.161 E10.06011
G1 X72.887 Y129.711 E10.14351
G1 X72.285 Y127.284 E10.22668
G1 X71.604 Y124.839 E10.3111
G1 X70.853 Y122.408 E10.39572
G1 X70.057 Y120.072 E10.47781
G1 X69.169 Y117.686 E10.56248
G1 X68.226 Y115.355 E10.64612
G1 X67.221 Y113.063 E10.72936
G1 X65.879 Y110.241 E10.83329
G1 X65.447 Y109.371 E10.8656
G1 X65.245 Y108.944 E10.88131
G1 X65.051 Y108.487 E10.89782
G1 X64.969 Y108.282 E10.90516
G1 X64.661 Y107.408 E10.93598
G1 X64.596 Y107.195 E10.94339
G1 X64.371 Y106.334 E10.97299
G1 X64.31 Y106.055 E10.98249
G1 X64.154 Y105.169 E11.01241
G1 X64.118 Y104.901 E11.0214
G1 X64.03 Y103.895 E11.05499
G1 X64.021 Y103.679 E11.06218
G1 X64.012 Y103.377 E11.07223
G1 X64 Y102.443 E11.1033
G1 X64.001 Y53.747 E12.72293
G1 X64.01 Y53.105 E12.74429
G1 X64.02 Y52.766 E12.75557
G1 X64.033 Y52.476 E12.76522
G1 X64.089 Y51.759 E12.78914
G1 X64.115 Y51.524 E12.79701
G1 X64.227 Y50.757 E12.82279
G1 X64.265 Y50.549 E12.82982
G1 X64.483 Y49.598 E12.86227
G1 X64.585 Y49.241 E12.87462
G1 X64.646 Y49.039 E12.88164
G1 X64.963 Y48.134 E12.91353
G1 X65.043 Y47.934 E12.9207
G1 X65.21 Y47.537 E12.93502
G1 X65.625 Y46.679 E12.96672
G1 X65.721 Y46.501 E12.97345
G1 X66.022 Y45.979 E12.99349
G1 X66.142 Y45.783 E13.00113
G1 X66.679 Y44.986 E13.0331
G0 F6000 X67.001 Y45.224
G1 F1200 X67.143 Y45.032 E13.04104
G1 X67.765 Y44.267 E13.07383
G1 X68.003 Y44.001 E13.08571
G1 X68.653 Y43.336 E13.11664
G1 X69.007 Y43.014 E13.13255
G1 X69.177 Y42.866 E13.14005
G1 X70.033 Y42.195 E13.17622
G1 X70.307 Y42.002 E13.18737
G1 X71.283 Y41.391 E13.22567
G1 X71.567 Y41.234 E13.23646
G1 X72.259 Y40.884 E13.26225
G1 X72.361 Y40.837 E13.26599
G1 X72.86 Y40.622 E13.28406
G1 X73.065 Y40.54 E13.29141
G1 X73.921 Y40.24 E13.32157
G1 X74.135 Y40.175 E13.32901
G1 X74.952 Y39.962 E13.35709
G1 X75.231 Y39.901 E13.36659
G1 X76.084 Y39.75 E13.3954
G1 X76.352 Y39.714 E13.4044
G1 X77.322 Y39.629 E13.43678
G1 X77.538 Y39.62 E13.44398
G1 X77.823 Y39.612 E13.45346
G1 X78.724 Y39.6 E13.48343
G1 X156.299 Y39.6 E16.06358
G1 X157.09 Y39.61 E16.08989
G1 X157.416 Y39.62 E16.10074
G1 X157.706 Y39.633 E16.1104
G1 X158.392 Y39.686 E16.13328
G1 X158.628 Y39.712 E16.14118
G1 X159.439 Y39.833 E16.16845
G1 X159.645 Y39.872 E16.17542
G1 X160.38 Y40.039 E16.20049
G1 X160.829 Y40.163 E16.21599
G1 X161.032 Y40.224 E16.22304
G1 X161.936 Y40.541 E16.2549
G1 X162.135 Y40.621 E16.26203
G1 X162.882 Y40.956 E16.28926
G1 X163.173 Y41.1 E16.30006
G1 X164.005 Y41.559 E16.33166
G1 X164.206 Y41.682 E16.3395
G1 X164.932 Y42.168 E16.36856
G1 X165.122 Y42.307 E16.37639
G1 X165.967 Y42.995 E16.41263
G1 X166.235 Y43.237 E16.42464
G1 X166.766 Y43.751 E16.44922
G1 X166.818 Y43.805 E16.45172
G1 X167.205 Y44.23 E16.47083
G1 X167.357 Y44.406 E16.47857
G1 X167.954 Y45.164 E16.51066
G1 X168.143 Y45.428 E16.52146
G1 X168.795 Y46.458 E16.562
G1 X168.958 Y46.752 E16.57318
G1 X169.293 Y47.409 E16.59771
G1 X169.342 Y47.514 E16.60157
G1 X169.578 Y48.06 E16.62135
G1 X169.66 Y48.265 E16.62869
G1 X169.962 Y49.128 E16.6591
G1 X170.022 Y49.326 E16.66599
G1 X170.222 Y50.086 E16.69212
G1 X170.288 Y50.381 E16.70218
G1 X170.449 Y51.279 E16.73252
G1 X170.485 Y51.546 E16.74148
G1 X170.57 Y52.512 E16.77374
G1 X170.588 Y53.014 E16.79044
G1 X170.6 Y53.902 E16.81998
G1 X170.599 Y102.622 E18.44042
G1 X170.59 Y103.285 E18.46247
G1 X170.58 Y103.616 E18.47348
G1 X170.567 Y103.906 E18.48314
G1 X170.514 Y104.592 E18.50602
G1 X170.488 Y104.828 E18.51392
G1 X170.367 Y105.639 E18.54119
G1 X170.328 Y105.845 E18.54817
G1 X170.161 Y106.58 E18.57323
G1 X170.037 Y107.029 E18.58873
G1 X169.976 Y107.232 E18.59578
G1 X169.659 Y108.136 E18.62764
G1 X169.579 Y108.335 E18.63477
G1 X169.4 Y108.755 E18.64996
G1 X169.162 Y109.261 E18.66856
G1 X168.999 Y109.585 E18.68062
G1 X167.849 Y111.952 E18.76815
G1 X166.808 Y114.255 E18.85221
G1 X165.841 Y116.568 E18.93559
G1 X164.915 Y118.967 E19.02112
G1 X164.078 Y121.345 E19.10497
G1 X163.317 Y123.712 E19.18766
G1 X162.601 Y126.175 E19.27297
G1 X161.966 Y128.617 E19.3569
G1 X161.395 Y131.093 E19.44141
G1 X160.902 Y133.541 E19.52447
G1 X160.587 Y135.444 E19.58862
G1 X160.399 Y136.512 E19.62469
G1 X160.335 Y136.848 E19.63606
G1 X160.247 Y137.268 E19.65034
G1 X160.032 Y138.116 E19.67943
G1 X159.974 Y138.311 E19.6862
G1 X159.832 Y138.753 E19.70164
G1 X159.628 Y139.305 E19.72122
G1 X159.51 Y139.599 E19.73175
G1 X159.101 Y140.496 E19.76454
G1 X158.953 Y140.784 E19.77531
G1 X158.534 Y141.525 E19.80362
G1 X158.423 Y141.704 E19.81063
G1 X157.915 Y142.45 E19.84065
G1 X157.661 Y142.791 E19.85479
G1 X156.992 Y143.602 E19.88976
G1 X156.878 Y143.727 E19.89538
G1 X156.312 Y144.302 E19.92222
G1 X155.987 Y144.608 E19.93707
G1 X155.191 Y145.286 E19.97184
G1 X155.021 Y145.417 E19.97898
G1 X154.393 Y145.866 E20.00466
G1 X154.122 Y146.045 E20.01546
G1 X153.278 Y146.548 E20.04814
G1 X152.99 Y146.702 E20.059
G1 X152.177 Y147.093 E20.08901
G1 X151.928 Y147.2 E20.09802
G1 X151.003 Y147.547 E20.13088
G1 X150.675 Y147.653 E20.14235
G1 X149.854 Y147.883 E20.1707
G1 X149.596 Y147.944 E20.17952
G1 X148.571 Y148.133 E20.21419
G1 X148.192 Y148.184 E20.22691
G1 X147.419 Y148.26 E20.25274
G1 X146.946 Y148.282 E20.26849
G1 X146.35 Y148.297 E20.28832
G1 X146.085 Y148.3 E20.29713
G1 X89.015 Y148.31 E22.19529
G1 X88.376 Y148.301 E22.21654
G1 X87.726 Y148.272 E22.23819
G1 X87.435 Y148.25 E22.24789
G1 X86.973 Y148.205 E22.26333
G1 X86.706 Y148.173 E22.27227
G1 X85.783 Y148.021 E22.30339
G1 X85.422 Y147.945 E22.31566
G1 X84.584 Y147.732 E22.34442
G1 X84.389 Y147.674 E22.35118
G1 X83.947 Y147.532 E22.36662
G1 X83.384 Y147.324 E22.38659
G1 X83.081 Y147.202 E22.39745
G1 X82.166 Y146.782 E22.43094
G1 X81.884 Y146.636 E22.4415
G1 X81.172 Y146.232 E22.46873
G1 X80.993 Y146.121 E22.47573
G1 X80.239 Y145.607 E22.50608
G1 X79.9 Y145.354 E22.52015
G1 X79.132 Y144.722 E22.55323
G1 X79.007 Y144.609 E22.55884
G1 X78.397 Y144.012 E22.58722
G1 X78.091 Y143.687 E22.60207
G1 X77.381 Y142.849 E22.6386
G1 X77.246 Y142.672 E22.64601
G1 X76.819 Y142.071 E22.67053
G1 X76.642 Y141.802 E22.68124
G1 X76.143 Y140.962 E22.71373
G1 X75.982 Y140.66 E22.72512
G1 X75.571 Y139.798 E22.75688
G1 X75.473 Y139.566 E22.76525
G1 X75.149 Y138.692 E22.79626
G1 X75.043 Y138.363 E22.80775
G1 X74.789 Y137.431 E22.83988
G1 X74.715 Y137.101 E22.85113
G1 X74.618 Y136.618 E22.86752
G1 X74.527 Y136.089 E22.88537
G1 X74.288 Y134.591 E22.93582
G1 X73.812 Y132.073 E23.02106
G1 X73.278 Y129.627 E23.10433
G1 X72.664 Y127.152 E23.18914
G1 X71.989 Y124.728 E23.27283
G1 X71.248 Y122.33 E23.35631
G1 X70.423 Y119.908 E23.44141
G1 X69.544 Y117.544 E23.5253
G1 X68.599 Y115.21 E23.60905
G1 X67.584 Y112.896 E23.69309
G1 X66.241 Y110.07 E23.79716
G1 X65.805 Y109.193 E23.82973
G1 X65.61 Y108.779 E23.84495
G1 X65.422 Y108.339 E23.86087
G1 X65.34 Y108.134 E23.86821
G1 X65.044 Y107.291 E23.89793
G1 X64.979 Y107.078 E23.90533
G1 X64.762 Y106.248 E23.93387
G1 X64.701 Y105.969 E23.94337
G1 X64.55 Y105.116 E23.97218
G1 X64.514 Y104.848 E23.98117
G1 X64.429 Y103.878 E24.01356
G1 X64.42 Y103.662 E24.02075
G1 X64.412 Y103.371 E24.03043
G1 X64.4 Y102.443 E24.0613
G1 X64.401 Y53.752 E25.68077
G1 X64.41 Y53.11 E25.70212
G1 X64.42 Y52.784 E25.71297
G1 X64.433 Y52.494 E25.72263
G1 X64.486 Y51.803 E25.74568
G1 X64.512 Y51.568 E25.75354
G1 X64.621 Y50.829 E25.77839
G1 X64.659 Y50.621 E25.78542
G1 X64.869 Y49.704 E25.81671
G1 X64.968 Y49.357 E25.82871
G1 X65.029 Y49.155 E25.83573
G1 X65.334 Y48.282 E25.86648
G1 X65.414 Y48.082 E25.87365
G1 X65.577 Y47.696 E25.88759
G1 X65.977 Y46.869 E25.91814
G1 X66.073 Y46.691 E25.92487
G1 X66.363 Y46.188 E25.94418
G1 X66.483 Y45.992 E25.95182
G1 X67.001 Y45.224 E25.98263
G0 F6000 X67.322 Y45.462
G1 F1200 X67.464 Y45.27 E25.99057
G1 X68.064 Y44.534 E26.02216
G1 X68.302 Y44.268 E26.03403
G1 X68.927 Y43.628 E26.06378
G1 X69.269 Y43.316 E26.07918
G1 X69.439 Y43.168 E26.08668
G1 X70.263 Y42.522 E26.1215
G1 X70.537 Y42.329 E26.13265
G1 X71.476 Y41.741 E26.1695
G1 X71.76 Y41.584 E26.18029
G1 X72.426 Y41.247 E26.20512
G1 X72.528 Y41.2 E26.20885
G1 X73.009 Y40.994 E26.22626
G1 X73.214 Y40.912 E26.2336
G1 X74.038 Y40.622 E26.26265
G1 X74.252 Y40.557 E26.27009
G1 X75.037 Y40.352 E26.29708
G1 X75.316 Y40.291 E26.30658
G1 X76.137 Y40.147 E26.3343
G1 X76.405 Y40.111 E26.34329
G1 X77.338 Y40.029 E26.37444
G1 X77.554 Y40.02 E26.38163
G1 X77.828 Y40.012 E26.39075
G1 X78.724 Y40 E26.42056
G1 X156.299 Y40 E29.00071
G1 X157.084 Y40.01 E29.02682
G1 X157.398 Y40.019 E29.03727
G1 X157.688 Y40.032 E29.04692
G1 X158.348 Y40.083 E29.06894
G1 X158.584 Y40.109 E29.07684
G1 X159.364 Y40.226 E29.10307
G1 X159.57 Y40.265 E29.11005
G1 X160.278 Y40.425 E29.13419
G1 X160.714 Y40.546 E29.14924
G1 X160.917 Y40.607 E29.15629
G1 X161.787 Y40.912 E29.18695
G1 X161.986 Y40.992 E29.19408
G1 X162.705 Y41.314 E29.22029
G1 X162.996 Y41.458 E29.23108
G1 X163.796 Y41.9 E29.26148
G1 X163.997 Y42.023 E29.26932
G1 X164.696 Y42.491 E29.2973
G1 X164.886 Y42.63 E29.30513
G1 X165.699 Y43.292 E29.34
G1 X165.967 Y43.534 E29.35201
G1 X166.478 Y44.029 E29.37567
G1 X166.53 Y44.083 E29.37817
G1 X166.903 Y44.491 E29.39655
G1 X167.055 Y44.667 E29.40429
G1 X167.629 Y45.396 E29.43515
G1 X167.818 Y45.66 E29.44595
G1 X168.445 Y46.652 E29.48498
G1 X168.608 Y46.946 E29.49616
G1 X168.93 Y47.579 E29.51978
G1 X168.979 Y47.684 E29.52364
G1 X169.206 Y48.209 E29.54266
G1 X169.288 Y48.414 E29.55
G1 X169.58 Y49.244 E29.57927
G1 X169.64 Y49.442 E29.58615
G1 X169.832 Y50.173 E29.61129
G1 X169.898 Y50.468 E29.62134
G1 X170.053 Y51.332 E29.65054
G1 X170.089 Y51.599 E29.6595
G1 X170.171 Y52.529 E29.69055
G1 X170.18 Y52.741 E29.69761
G1 X170.188 Y53.02 E29.70689
G1 X170.2 Y53.902 E29.73623
G1 X170.199 Y102.616 E31.35646
G1 X170.19 Y103.279 E31.37852
G1 X170.181 Y103.598 E31.38913
G1 X170.168 Y103.888 E31.39879
G1 X170.117 Y104.548 E31.4208
G1 X170.091 Y104.784 E31.4287
G1 X169.974 Y105.564 E31.45493
G1 X169.935 Y105.77 E31.46191
G1 X169.775 Y106.478 E31.48605
G1 X169.654 Y106.914 E31.5011
G1 X169.593 Y107.117 E31.50815
G1 X169.288 Y107.987 E31.53881
G1 X169.208 Y108.186 E31.54594
G1 X169.034 Y108.594 E31.5607
G1 X168.805 Y109.082 E31.57863
G1 X168.603 Y109.484 E31.59359
G1 X167.497 Y111.762 E31.67781
G1 X166.439 Y114.102 E31.76323
G1 X165.47 Y116.419 E31.84676
G1 X164.541 Y118.827 E31.9326
G1 X163.707 Y121.195 E32.01611
G1 X162.925 Y123.625 E32.10101
G1 X162.215 Y126.067 E32.18559
G1 X161.575 Y128.531 E32.27027
G1 X161.007 Y130.996 E32.3544
