;FLAVOR:Marlin
;TIME:9660
;Filament used: 6.41244m
;Layer height: 0.2
;MINX:50.259
;MINY:17.404
;MINZ:0.2
;MAXX:169.601
;MAXY:204.375
;MAXZ:2.6
;Generated with Cura_SteamEngine master
M140 S50
M105
M190 S50
M104 S200
M105
M109 S200
M82 ;absolute extrusion mode
; Ender 3 Custom Start G-code
G92 E0 ; Reset Extruder
G28 ; Home all axes
G1 Z2.0 F3000 ; Move Z Axis up little to prevent scratching of Heat Bed
G1 X0.1 Y20 Z0.3 F5000.0 ; Move to start position
G1 X0.1 Y200.0 Z0.3 F1500.0 E15 ; Draw the first line
G1 X0.4 Y200.0 Z0.3 F5000.0 ; Move to side a little
G1 X0.4 Y20 Z0.3 F1500.0 E30 ; Draw the second line
G92 E0 ; Reset Extruder
G1 Z2.0 F3000 ; Move Z Axis up little to prevent scratching of Heat Bed
G1 X5 Y20 Z0.3 F5000.0 ; Move over to prevent blob squish
G92 E0
G92 E0
G1 F2700 E-5
;LAYER_COUNT:13
;LAYER:0
M107
G0 F6000 X51.399 Y27.696 Z0.2
;TYPE:SKIRT
G1 F2700 E0
G1 F1200 X51.851 Y26.874 E0.0312
G1 X52.372 Y26.094 E0.0624
G1 X52.957 Y25.361 E0.09359
G1 X53.602 Y24.681 E0.12476
G1 X54.303 Y24.058 E0.15596
G1 X55.055 Y23.497 E0.18716
G1 X55.851 Y23.002 E0.21834
G1 X56.687 Y22.576 E0.24954
G1 X57.556 Y22.224 E0.28073
G1 X58.452 Y21.946 E0.31193
G1 X59.605 Y21.708 E0.35109
G1 X59.77 Y21.683 E0.35664
G1 X60.703 Y21.582 E0.38785
G1 X61.299 Y21.56 E0.40769
G1 X61.789 Y21.555 E0.42399
G1 X88.499 Y21.556 E1.31237
G1 X91.107 Y21.519 E1.39912
G1 X93.605 Y21.413 E1.48228
G1 X96.135 Y21.235 E1.56663
G1 X98.635 Y20.986 E1.65019
G1 X101.135 Y20.666 E1.73402
G1 X103.637 Y20.274 E1.81825
G1 X105.875 Y19.861 E1.89395
G1 X106.369 Y19.763 E1.9107
G1 X107.031 Y19.653 E1.93302
G1 X108.033 Y19.517 E1.96665
G1 X109.319 Y19.364 E2.00972
G1 X111.841 Y18.995 E2.0945
G1 X114.289 Y18.565 E2.17717
G1 X116.76 Y18.06 E2.26105
G1 X117.199 Y17.957 E2.27605
G1 X118.45 Y17.68 E2.31867
G1 X119.373 Y17.517 E2.34984
G1 X120.643 Y17.422 E2.3922
G1 X121.722 Y17.405 E2.42809
G1 X157.908 Y17.404 E3.63164
G1 X158.761 Y17.415 E3.66001
G1 X159.698 Y17.469 E3.69123
G1 X160.626 Y17.602 E3.72241
G1 X161.54 Y17.813 E3.75361
G1 X162.432 Y18.102 E3.7848
G1 X163.297 Y18.466 E3.81601
G1 X164.127 Y18.902 E3.84719
G1 X164.917 Y19.407 E3.87838
G1 X165.661 Y19.977 E3.90955
G1 X166.354 Y20.609 E3.94075
G1 X166.991 Y21.298 E3.97196
G1 X167.567 Y22.038 E4.00315
G1 X168.077 Y22.825 E4.03434
G1 X168.519 Y23.652 E4.06553
G1 X168.889 Y24.514 E4.09673
G1 X169.183 Y25.405 E4.12793
G1 X169.401 Y26.317 E4.15912
G1 X169.541 Y27.244 E4.1903
G1 X169.601 Y28.18 E4.2215
G1 X169.598 Y28.73 E4.23979
G1 X169.586 Y29.147 E4.25367
G1 X169.572 Y29.473 E4.26452
G1 X169.541 Y30.003 E4.28218
G1 X169.517 Y30.331 E4.29311
G1 X169.319 Y32.553 E4.36731
G1 X169.137 Y34.315 E4.42623
G1 X169.035 Y35.189 E4.45549
G1 X168.913 Y36.446 E4.4975
G1 X158.454 Y154 E8.42281
G1 X158.307 Y155.619 E8.47688
G1 X158.277 Y155.993 E8.48935
G1 X157.582 Y163.808 E8.75031
G1 X157.392 Y166.359 E8.83539
G1 X157.276 Y168.865 E8.91883
G1 X157.231 Y171.397 E9.00306
G1 X157.256 Y173.87 E9.08531
G1 X157.377 Y176.829 E9.18381
G1 X157.392 Y177.355 E9.20131
G1 X157.396 Y177.671 E9.21183
G1 X157.394 Y184.786 E9.44847
G1 X157.384 Y185.479 E9.47152
G1 X157.33 Y186.415 E9.50271
G1 X157.256 Y186.998 E9.52225
G1 X157.166 Y187.581 E9.54187
G1 X157.128 Y187.814 E9.54972
G1 X155.913 Y194.692 E9.78203
G1 X155.776 Y195.412 E9.80641
G1 X155.562 Y196.325 E9.8376
G1 X155.27 Y197.217 E9.86881
G1 X154.904 Y198.08 E9.89999
G1 X154.465 Y198.909 E9.93119
G1 X153.958 Y199.698 E9.96238
G1 X153.385 Y200.44 E9.99357
G1 X152.751 Y201.131 E10.02476
G1 X152.06 Y201.766 E10.05597
G1 X151.318 Y202.339 E10.08715
G1 X150.53 Y202.847 E10.11833
G1 X149.701 Y203.287 E10.14955
G1 X148.838 Y203.653 E10.18073
G1 X147.947 Y203.946 E10.21192
G1 X147.034 Y204.161 E10.24312
G1 X146.106 Y204.297 E10.27432
G1 X145.184 Y204.354 E10.30504
G1 X144.207 Y204.373 E10.33754
G1 X143.993 Y204.375 E10.34466
G1 X103.366 Y204.374 E11.69592
G1 X102.665 Y204.364 E11.71924
G1 X101.729 Y204.311 E11.75042
G1 X100.8 Y204.178 E11.78163
G1 X99.887 Y203.966 E11.81281
G1 X98.994 Y203.678 E11.84401
G1 X98.13 Y203.314 E11.8752
G1 X97.299 Y202.878 E11.90641
G1 X96.509 Y202.373 E11.9376
G1 X95.765 Y201.803 E11.96877
G1 X95.072 Y201.171 E11.99996
G1 X94.435 Y200.482 E12.03117
G1 X93.859 Y199.742 E12.06236
G1 X93.461 Y199.141 E12.08634
G1 X92.079 Y196.901 E12.17388
G1 X90.683 Y194.774 E12.2585
G1 X89.229 Y192.69 E12.34302
G1 X87.76 Y190.706 E12.42512
G1 X86.19 Y188.705 E12.50972
G1 X84.578 Y186.767 E12.59356
G1 X82.9 Y184.864 E12.67795
G1 X81.21 Y183.051 E12.76038
G1 X79.448 Y181.264 E12.84385
G1 X77.61 Y179.504 E12.92849
G1 X75.735 Y177.808 E13.01258
G1 X73.85 Y176.198 E13.09503
G1 X71.87 Y174.599 E13.17968
G1 X69.857 Y173.068 E13.2638
G1 X67.835 Y171.617 E13.34657
G1 X65.98 Y170.368 E13.42095
G1 X65.608 Y170.11 E13.43601
G1 X64.895 Y169.571 E13.46574
G1 X64.839 Y169.525 E13.46815
G1 X64.14 Y168.899 E13.49936
G1 X63.497 Y168.216 E13.53056
G1 X62.915 Y167.481 E13.56174
G1 X62.397 Y166.699 E13.59294
G1 X61.948 Y165.876 E13.62412
G1 X61.571 Y165.017 E13.65532
G1 X61.268 Y164.13 E13.68649
G1 X61.042 Y163.219 E13.71771
G1 X60.894 Y162.293 E13.7489
G1 X60.823 Y161.254 E13.78354
G1 X60.801 Y160.199 E13.81864
G1 X60.799 Y159.97 E13.82625
G1 X60.801 Y135.3 E14.64678
G1 X60.812 Y134.593 E14.6703
G1 X60.898 Y133.38 E14.71075
G1 X61.052 Y132.168 E14.75138
G1 X61.343 Y129.602 E14.83727
G1 X61.558 Y127.065 E14.92196
G1 X61.696 Y124.639 E15.00278
G1 X61.779 Y120.667 E15.13491
G1 X61.776 Y104.497 E15.67273
G1 X61.738 Y101.883 E15.75968
G1 X61.631 Y99.36 E15.84367
G1 X61.455 Y96.878 E15.92643
G1 X61.203 Y94.348 E16.011
G1 X60.888 Y91.889 E16.09345
G1 X60.494 Y89.381 E16.17789
G1 X60.03 Y86.888 E16.26223
G1 X59.508 Y84.466 E16.34464
G1 X58.902 Y81.994 E16.42929
G1 X58.232 Y79.565 E16.5131
G1 X57.496 Y77.159 E16.59678
G1 X56.914 Y75.434 E16.65733
G1 X56.749 Y74.926 E16.6751
G1 X56.498 Y74.023 E16.70627
G1 X56.364 Y73.358 E16.72883
G1 X56.201 Y72.385 E16.76165
G1 X50.448 Y34.758 E18.02767
G1 X50.355 Y34.081 E18.0504
G1 X50.267 Y33.147 E18.0816
G1 X50.259 Y32.209 E18.1128
G1 X50.331 Y31.274 E18.14399
G1 X50.483 Y30.349 E18.17517
G1 X50.712 Y29.439 E18.20638
G1 X51.018 Y28.553 E18.23755
G1 X51.399 Y27.696 E18.26875
G0 F6000 X51.81 Y27.768
G1 F1200 X52.264 Y26.967 E18.29937
G1 X52.785 Y26.208 E18.32999
G1 X53.37 Y25.497 E18.36062
G1 X54.015 Y24.84 E18.39124
G1 X54.714 Y24.241 E18.42185
G1 X55.463 Y23.705 E18.45249
G1 X56.255 Y23.236 E18.4831
G1 X57.085 Y22.838 E18.51372
G1 X57.947 Y22.513 E18.54436
G1 X58.833 Y22.264 E18.57497
G1 X59.665 Y22.104 E18.60315
G1 X59.83 Y22.079 E18.6087
G1 X60.745 Y21.98 E18.63931
G1 X61.304 Y21.96 E18.65791
G1 X61.789 Y21.955 E18.67405
G1 X88.505 Y21.956 E19.56262
G1 X91.13 Y21.919 E19.64994
G1 X93.614 Y21.813 E19.73263
G1 X96.17 Y21.633 E19.81786
G1 X98.689 Y21.383 E19.90205
G1 X101.177 Y21.064 E19.98548
G1 X103.694 Y20.67 E20.07021
G1 X106.032 Y20.238 E20.14929
G1 X106.447 Y20.156 E20.16336
G1 X107.084 Y20.049 E20.18485
G1 X108.086 Y19.913 E20.21848
G1 X109.388 Y19.758 E20.26209
G1 X111.896 Y19.391 E20.34639
G1 X114.366 Y18.957 E20.42981
G1 X116.835 Y18.453 E20.51362
G1 X117.285 Y18.348 E20.52899
G1 X118.536 Y18.071 E20.5716
G1 X119.443 Y17.911 E20.60224
G1 X120.65 Y17.821 E20.64249
G1 X121.544 Y17.806 E20.67223
G1 X157.908 Y17.804 E21.8817
G1 X158.756 Y17.815 E21.90991
G1 X159.675 Y17.868 E21.94053
G1 X160.586 Y18.001 E21.97115
G1 X161.482 Y18.212 E22.00176
G1 X162.356 Y18.501 E22.03238
G1 X163.202 Y18.864 E22.063
G1 X164.013 Y19.299 E22.09361
G1 X164.784 Y19.803 E22.12425
G1 X165.508 Y20.371 E22.15485
G1 X166.18 Y21.001 E22.18549
G1 X166.794 Y21.686 E22.21609
G1 X167.347 Y22.423 E22.24673
G1 X167.834 Y23.204 E22.27734
G1 X168.251 Y24.025 E22.30797
G1 X168.596 Y24.878 E22.33857
G1 X168.865 Y25.759 E22.36921
G1 X169.057 Y26.659 E22.39982
G1 X169.17 Y27.573 E22.43045
G1 X169.199 Y28.719 E22.46858
G1 X169.187 Y29.136 E22.48245
G1 X169.173 Y29.45 E22.49291
G1 X169.142 Y29.98 E22.51057
G1 X169.119 Y30.295 E22.52107
G1 X168.922 Y32.512 E22.5951
G1 X168.757 Y34.119 E22.64883
G1 X168.636 Y35.153 E22.68346
G1 X168.507 Y36.491 E22.72816
G1 X158.056 Y153.964 E26.65076
G1 X157.898 Y155.709 E26.70904
G1 X157.878 Y155.957 E26.71731
G1 X157.186 Y163.74 E26.9772
G1 X156.994 Y166.31 E27.06292
G1 X156.876 Y168.876 E27.14835
G1 X156.831 Y171.394 E27.23211
G1 X156.856 Y173.891 E27.31517
G1 X156.977 Y176.841 E27.41337
G1 X156.992 Y177.367 E27.43087
G1 X156.996 Y177.671 E27.44098
G1 X156.994 Y184.78 E27.67743
G1 X156.984 Y185.473 E27.70048
G1 X156.931 Y186.392 E27.7311
G1 X156.861 Y186.937 E27.74937
G1 X156.771 Y187.52 E27.76899
G1 X156.734 Y187.745 E27.77658
G1 X155.546 Y194.478 E28.00398
G1 X155.383 Y195.337 E28.03306
G1 X155.172 Y196.233 E28.06367
G1 X154.884 Y197.108 E28.09431
G1 X154.521 Y197.954 E28.12493
G1 X154.086 Y198.765 E28.15554
G1 X153.582 Y199.536 E28.18618
G1 X153.013 Y200.26 E28.2168
G1 X152.384 Y200.932 E28.24742
G1 X151.699 Y201.547 E28.27804
G1 X150.963 Y202.1 E28.30866
G1 X150.181 Y202.587 E28.3393
G1 X149.361 Y203.004 E28.36989
G1 X148.507 Y203.349 E28.40053
G1 X147.626 Y203.618 E28.43117
G1 X146.726 Y203.81 E28.46177
G1 X145.812 Y203.922 E28.4924
G1 X145.176 Y203.954 E28.51358
G1 X144.199 Y203.973 E28.54608
G1 X143.993 Y203.975 E28.55293
G1 X103.372 Y203.974 E29.90399
G1 X102.671 Y203.964 E29.92731
G1 X101.752 Y203.911 E29.95793
G1 X100.841 Y203.778 E29.98855
G1 X99.945 Y203.567 E30.01917
G1 X99.07 Y203.279 E30.04981
G1 X98.224 Y202.916 E30.08042
G1 X97.413 Y202.481 E30.11103
G1 X96.642 Y201.977 E30.14167
G1 X95.918 Y201.408 E30.1723
G1 X95.246 Y200.779 E30.20291
G1 X94.631 Y200.094 E30.23353
G1 X94.078 Y199.358 E30.26415
G1 X93.801 Y198.931 E30.28108
G1 X92.405 Y196.668 E30.36951
G1 X91.018 Y194.555 E30.45358
G1 X89.562 Y192.469 E30.53819
G1 X88.064 Y190.444 E30.62197
G1 X86.497 Y188.447 E30.7064
G1 X84.887 Y186.513 E30.79009
G1 X83.226 Y184.629 E30.87363
G1 X81.47 Y182.744 E30.95932
G1 X79.727 Y180.977 E31.04187
G1 X77.872 Y179.201 E31.12728
G1 X76.017 Y177.523 E31.21048
G1 X74.116 Y175.899 E31.29364
G1 X72.118 Y174.286 E31.37904
G1 X70.087 Y172.74 E31.46394
G1 X68.085 Y171.304 E31.54588
G1 X66.33 Y170.123 E31.61624
G1 X65.836 Y169.781 E31.63622
G1 X65.149 Y169.262 E31.66486
G1 X65.093 Y169.216 E31.66727
G1 X64.407 Y168.601 E31.69791
G1 X63.778 Y167.929 E31.72853
G1 X63.209 Y167.205 E31.75916
G1 X62.705 Y166.435 E31.78976
G1 X62.27 Y165.623 E31.8204
G1 X61.907 Y164.777 E31.85102
G1 X61.619 Y163.903 E31.88163
G1 X61.408 Y163.007 E31.91225
G1 X61.275 Y162.096 E31.94287
G1 X61.223 Y161.246 E31.97119
G1 X61.201 Y160.191 E32.00629
G1 X61.199 Y159.97 E32.01364
G1 X61.201 Y135.306 E32.83397
G1 X61.212 Y134.599 E32.85748
G1 X61.295 Y133.43 E32.89646
G1 X61.456 Y132.161 E32.93901
G1 X61.741 Y129.645 E33.02323
G1 X61.955 Y127.123 E33.10741
G1 X62.096 Y124.641 E33.19009
G1 X62.179 Y120.676 E33.322
G1 X62.176 Y104.492 E33.86028
G1 X62.138 Y101.86 E33.94783
G1 X62.031 Y99.351 E34.03136
G1 X61.854 Y96.847 E34.11485
G1 X61.603 Y94.324 E34.19918
G1 X61.28 Y91.812 E34.28341
G1 X60.882 Y89.276 E34.3688
G1 X60.43 Y86.843 E34.4511
G1 X59.894 Y84.359 E34.53562
G1 X59.291 Y81.898 E34.6199
G1 X58.624 Y79.48 E34.70332
G1 X57.871 Y77.019 E34.78892
G1 X57.294 Y75.311 E34.84888
G1 X57.129 Y74.803 E34.86665
G1 X56.883 Y73.915 E34.8973
G1 X56.759 Y73.292 E34.91842
G1 X56.597 Y72.324 E34.95107
G1 X50.845 Y34.704 E36.21685
G1 X50.752 Y34.027 E36.23958
G1 X50.666 Y33.11 E36.27022
G1 X50.66 Y32.189 E36.30085
G1 X50.735 Y31.272 E36.33145
G1 X50.888 Y30.364 E36.36208
G1 X51.12 Y29.473 E36.3927
G1 X51.428 Y28.605 E36.42333
G1 X51.81 Y27.768 E36.45393
G0 F6000 X52.222 Y27.843
G1 F1200 X52.677 Y27.062 E36.484
G1 X53.199 Y26.325 E36.51404
G1 X53.784 Y25.637 E36.54407
G1 X54.428 Y25.004 E36.57411
G1 X55.125 Y24.43 E36.60414
G1 X55.87 Y23.92 E36.63417
G1 X56.658 Y23.478 E36.66422
G1 X57.481 Y23.107 E36.69424
G1 X58.334 Y22.811 E36.72427
G1 X59.21 Y22.591 E36.75431
G1 X59.725 Y22.499 E36.77171
G1 X59.89 Y22.474 E36.77727
G1 X60.788 Y22.378 E36.8073
G1 X61.308 Y22.36 E36.82461
G1 X61.789 Y22.355 E36.84061
G1 X88.511 Y22.356 E37.72938
G1 X91.117 Y22.319 E37.81607
G1 X93.659 Y22.211 E37.90069
G1 X96.201 Y22.032 E37.98545
G1 X98.712 Y21.782 E38.06938
G1 X101.253 Y21.457 E38.15458
G1 X103.757 Y21.065 E38.23888
G1 X106.105 Y20.631 E38.3183
G1 X106.525 Y20.548 E38.33254
G1 X107.138 Y20.446 E38.3532
G1 X108.318 Y20.287 E38.39281
G1 X109.456 Y20.153 E38.43092
G1 X111.952 Y19.787 E38.51482
G1 X114.444 Y19.35 E38.59897
G1 X116.91 Y18.846 E38.68269
G1 X117.372 Y18.738 E38.69847
G1 X118.623 Y18.461 E38.74108
G1 X119.512 Y18.305 E38.7711
G1 X120.657 Y18.221 E38.80929
G1 X121.551 Y18.206 E38.83903
G1 X157.908 Y18.204 E40.04827
G1 X158.75 Y18.215 E40.07627
G1 X159.651 Y18.268 E40.10629
G1 X160.545 Y18.401 E40.13636
G1 X161.423 Y18.611 E40.16638
G1 X162.279 Y18.899 E40.19642
G1 X163.106 Y19.262 E40.22646
G1 X163.898 Y19.696 E40.2565
G1 X164.648 Y20.198 E40.28651
G1 X165.351 Y20.765 E40.31655
G1 X166.001 Y21.392 E40.34659
G1 X166.593 Y22.074 E40.37663
G1 X167.123 Y22.806 E40.40669
G1 X167.586 Y23.581 E40.43671
G1 X167.978 Y24.395 E40.46676
G1 X168.297 Y25.24 E40.4968
G1 X168.539 Y26.11 E40.52684
G1 X168.704 Y26.998 E40.55688
G1 X168.79 Y27.897 E40.58692
G1 X168.799 Y28.707 E40.61386
G1 X168.787 Y29.124 E40.62773
G1 X168.774 Y29.427 E40.63782
G1 X168.743 Y29.957 E40.65548
G1 X168.72 Y30.26 E40.66559
G1 X168.524 Y32.471 E40.73941
G1 X168.343 Y34.222 E40.79796
G1 X168.238 Y35.118 E40.82797
G1 X168.109 Y36.453 E40.87258
G1 X157.657 Y153.928 E44.79524
G1 X157.505 Y155.607 E44.85132
G1 X157.48 Y155.922 E44.86183
G1 X156.791 Y163.678 E45.12081
G1 X156.592 Y166.33 E45.20926
G1 X156.476 Y168.851 E45.2932
G1 X156.431 Y171.391 E45.37769
G1 X156.456 Y173.911 E45.46151
G1 X156.577 Y176.852 E45.55941
G1 X156.592 Y177.378 E45.57692
G1 X156.596 Y177.67 E45.58663
G1 X156.594 Y184.774 E45.82291
G1 X156.584 Y185.467 E45.84596
G1 X156.531 Y186.369 E45.87601
G1 X156.466 Y186.876 E45.89301
G1 X156.376 Y187.459 E45.91263
G1 X156.34 Y187.675 E45.91992
G1 X155.127 Y194.543 E46.15188
G1 X154.99 Y195.263 E46.17626
G1 X154.782 Y196.141 E46.20627
G1 X154.497 Y196.998 E46.23631
G1 X154.138 Y197.827 E46.26636
G1 X153.707 Y198.62 E46.29638
G1 X153.207 Y199.372 E46.32641
G1 X152.642 Y200.077 E46.35646
G1 X152.018 Y200.73 E46.3865
G1 X151.338 Y201.324 E46.41653
G1 X150.608 Y201.856 E46.44658
G1 X149.834 Y202.322 E46.47662
G1 X149.022 Y202.717 E46.50666
G1 X148.178 Y203.038 E46.53669
G1 X147.309 Y203.284 E46.56673
G1 X146.422 Y203.452 E46.59676
G1 X145.168 Y203.554 E46.6386
G1 X144.191 Y203.573 E46.6711
G1 X143.993 Y203.575 E46.67769
G1 X103.378 Y203.574 E48.02855
G1 X102.677 Y203.564 E48.05187
G1 X101.775 Y203.511 E48.08192
G1 X100.882 Y203.379 E48.11194
G1 X100.003 Y203.168 E48.14201
G1 X99.147 Y202.88 E48.17205
G1 X98.32 Y202.518 E48.20207
G1 X97.528 Y202.084 E48.23211
G1 X96.778 Y201.581 E48.26215
G1 X96.075 Y201.014 E48.29219
G1 X95.425 Y200.388 E48.3222
G1 X94.832 Y199.706 E48.35226
G1 X94.142 Y198.721 E48.39226
G1 X92.753 Y196.469 E48.48026
G1 X91.348 Y194.329 E48.56541
G1 X89.88 Y192.225 E48.65074
G1 X88.385 Y190.205 E48.73432
G1 X86.821 Y188.211 E48.81861
G1 X85.193 Y186.256 E48.90323
G1 X83.502 Y184.337 E48.9883
G1 X81.782 Y182.492 E49.07219
G1 X80.005 Y180.69 E49.15637
G1 X78.153 Y178.916 E49.24167
G1 X76.279 Y177.222 E49.32569
G1 X74.325 Y175.552 E49.41118
G1 X72.367 Y173.971 E49.49488
G1 X70.357 Y172.442 E49.57888
G1 X68.312 Y170.975 E49.66259
G1 X66.553 Y169.791 E49.73311
G1 X66.064 Y169.452 E49.7529
G1 X65.403 Y168.953 E49.78045
G1 X65.347 Y168.907 E49.78286
G1 X64.675 Y168.303 E49.81291
G1 X64.059 Y167.643 E49.84294
G1 X63.504 Y166.93 E49.87299
G1 X63.014 Y166.171 E49.90304
G1 X62.594 Y165.372 E49.93306
G1 X62.245 Y164.539 E49.9631
G1 X61.972 Y163.678 E49.99314
G1 X61.776 Y162.797 E50.02316
G1 X61.659 Y161.901 E50.05321
G1 X61.623 Y161.238 E50.0753
G1 X61.601 Y160.183 E50.11039
G1 X61.599 Y159.97 E50.11748
G1 X61.601 Y135.312 E50.93761
G1 X61.612 Y134.605 E50.96113
G1 X61.692 Y133.48 E50.99864
G1 X61.844 Y132.279 E51.0389
G1 X62.138 Y129.691 E51.12553
G1 X62.354 Y127.141 E51.21065
G1 X62.496 Y124.645 E51.2938
