;FLAVOR:Marlin
;TIME:10292
;Filament used: 6.36455m
;Layer height: 0.2
;MINX:46.907
;MINY:29.713
;MINZ:0.2
;MAXX:175.674
;MAXY:193.849
;MAXZ:2.6
;Generated with Cura_SteamEngine master
M140 S50
M105
M190 S50
M104 S200
M105
M109 S200
M82 ;absolute extrusion mode
; Ender 3 Custom Start G-code
G92 E0 ; Reset Extruder
G28 ; Home all axes
G1 Z2.0 F3000 ; Move Z Axis up little to prevent scratching of Heat Bed
G1 X0.1 Y20 Z0.3 F5000.0 ; Move to start position
G1 X0.1 Y200.0 Z0.3 F1500.0 E15 ; Draw the first line
G1 X0.4 Y200.0 Z0.3 F5000.0 ; Move to side a little
G1 X0.4 Y20 Z0.3 F1500.0 E30 ; Draw the second line
G92 E0 ; Reset Extruder
G1 Z2.0 F3000 ; Move Z Axis up little to prevent scratching of Heat Bed
G1 X5 Y20 Z0.3 F5000.0 ; Move over to prevent blob squish
G92 E0
G92 E0
G1 F2700 E-5
;LAYER_COUNT:13
;LAYER:0
M107
G0 F6000 X49.486 Y38.157 Z0.2
;TYPE:SKIRT
G1 F2700 E0
G1 F1200 X50.119 Y37.465 E0.03119
G1 X50.809 Y36.83 E0.06238
G1 X51.551 Y36.257 E0.09356
G1 X52.339 Y35.748 E0.12476
G1 X53.168 Y35.308 E0.15598
G1 X54.031 Y34.941 E0.18717
G1 X54.922 Y34.648 E0.21837
G1 X55.834 Y34.433 E0.24953
G1 X56.762 Y34.296 E0.28073
G1 X57.723 Y34.238 E0.31275
G1 X58.749 Y34.222 E0.34688
G1 X86.755 Y34.221 E1.27837
G1 X89.364 Y34.184 E1.36515
G1 X91.885 Y34.077 E1.44907
G1 X94.345 Y33.903 E1.5311
G1 X97.96 Y33.524 E1.65199
G1 X98.082 Y33.509 E1.65608
G1 X98.93 Y33.437 E1.68439
G1 X99.359 Y33.424 E1.69866
G1 X100.06 Y33.416 E1.72198
G1 X120.194 Y33.415 E2.39164
G1 X122.803 Y33.378 E2.47842
G1 X125.324 Y33.271 E2.56235
G1 X127.803 Y33.095 E2.64501
G1 X130.33 Y32.844 E2.72947
G1 X132.83 Y32.524 E2.8133
G1 X135.304 Y32.136 E2.89659
G1 X137.778 Y31.675 E2.98029
G1 X140.259 Y31.142 E3.06469
G1 X142.671 Y30.55 E3.1473
G1 X143.993 Y30.204 E3.19275
G1 X144.348 Y30.118 E3.2049
G1 X144.786 Y30.019 E3.21983
G1 X145.907 Y29.826 E3.25766
G1 X146.041 Y29.81 E3.26215
G1 X146.796 Y29.746 E3.28735
G1 X147.016 Y29.735 E3.29468
G1 X147.404 Y29.722 E3.30759
G1 X148.019 Y29.713 E3.32805
G1 X148.35 Y29.713 E3.33906
G1 X150.001 Y29.74 E3.39398
G1 X150.36 Y29.751 E3.40593
G1 X151.898 Y29.762 E3.45708
G1 X153.963 Y29.739 E3.52577
G1 X154.972 Y29.716 E3.55934
G1 X155.358 Y29.714 E3.57217
G1 X155.598 Y29.717 E3.58016
G1 X156.4 Y29.756 E3.60686
G1 X156.715 Y29.783 E3.61738
G1 X157.905 Y29.951 E3.65735
G1 X158.123 Y29.994 E3.66474
G1 X159.11 Y30.236 E3.69854
G1 X159.452 Y30.337 E3.7104
G1 X160.339 Y30.641 E3.74159
G1 X161.02 Y30.934 E3.76625
G1 X161.105 Y30.974 E3.76937
G1 X161.58 Y31.212 E3.78704
G1 X161.806 Y31.332 E3.79555
G1 X162.614 Y31.806 E3.82671
G1 X163.433 Y32.389 E3.86015
G1 X163.618 Y32.534 E3.86796
G1 X164.331 Y33.144 E3.89917
G1 X164.989 Y33.812 E3.93036
G1 X165.418 Y34.316 E3.95237
G1 X165.595 Y34.537 E3.96179
G1 X166.149 Y35.293 E3.99296
G1 X166.637 Y36.094 E4.02416
G1 X167.059 Y36.941 E4.05563
G1 X167.152 Y37.15 E4.06324
G1 X167.496 Y38.022 E4.09442
G1 X167.765 Y38.921 E4.12563
G1 X167.91 Y39.574 E4.14788
G1 X167.939 Y39.727 E4.15306
G1 X168.105 Y41.013 E4.19619
G1 X168.158 Y41.776 E4.22162
G1 X168.689 Y51.625 E4.54968
G1 X175.644 Y180.827 E8.85318
G1 X175.674 Y181.592 E8.87864
G1 X175.67 Y182.53 E8.90984
G1 X175.587 Y183.464 E8.94103
G1 X175.425 Y184.388 E8.97223
G1 X175.184 Y185.294 E9.00341
G1 X174.868 Y186.177 E9.0346
G1 X174.477 Y187.029 E9.06578
G1 X174.015 Y187.846 E9.097
G1 X173.485 Y188.619 E9.12817
G1 X172.891 Y189.345 E9.15937
G1 X172.237 Y190.018 E9.19058
G1 X171.529 Y190.632 E9.22175
G1 X170.77 Y191.184 E9.25297
G1 X169.968 Y191.67 E9.28416
G1 X169.127 Y192.085 E9.31535
G1 X168.254 Y192.427 E9.34653
G1 X167.354 Y192.693 E9.37775
G1 X166.436 Y192.882 E9.40892
G1 X165.504 Y192.992 E9.44013
G1 X164.902 Y193.021 E9.46018
G1 X163.9 Y193.041 E9.49351
G1 X163.68 Y193.043 E9.50083
G1 X138.882 Y193.042 E10.32562
G1 X138.178 Y193.032 E10.34903
G1 X137.241 Y192.979 E10.38025
G1 X136.313 Y192.846 E10.41143
G1 X135.566 Y192.679 E10.43689
G1 X132.91 Y191.989 E10.52816
G1 X130.466 Y191.427 E10.61157
G1 X127.947 Y190.924 E10.697
G1 X125.507 Y190.507 E10.77934
G1 X123.008 Y190.153 E10.86328
G1 X120.53 Y189.873 E10.94623
G1 X117.994 Y189.658 E11.03088
G1 X115.494 Y189.518 E11.11416
G1 X112.963 Y189.447 E11.19837
G1 X110.438 Y189.449 E11.28235
G1 X107.949 Y189.52 E11.36517
G1 X105.445 Y189.663 E11.44859
G1 X102.895 Y189.882 E11.53372
G1 X100.413 Y190.165 E11.6168
G1 X97.935 Y190.519 E11.70006
G1 X95.451 Y190.945 E11.78388
G1 X93.003 Y191.437 E11.86693
G1 X90.536 Y192.007 E11.95115
G1 X88.1 Y192.643 E12.03488
G1 X87.09 Y192.941 E12.06991
G1 X86.883 Y192.993 E12.07701
G1 X85.624 Y193.353 E12.12056
G1 X85.218 Y193.462 E12.13454
G1 X84.301 Y193.656 E12.16572
G1 X83.627 Y193.748 E12.18834
G1 X83.311 Y193.781 E12.19891
G1 X82.319 Y193.839 E12.23196
G1 X81.504 Y193.849 E12.25907
G1 X80.3 Y193.847 E12.29911
G1 X78.534 Y193.822 E12.35786
G1 X77.202 Y193.812 E12.40216
G1 X76.311 Y193.811 E12.43179
G1 X74.005 Y193.844 E12.5085
G1 X73.516 Y193.848 E12.52476
G1 X72.091 Y193.847 E12.57216
G1 X71.386 Y193.837 E12.59561
G1 X70.765 Y193.811 E12.61628
G1 X70.525 Y193.794 E12.62429
G1 X69.145 Y193.607 E12.6706
G1 X68.925 Y193.563 E12.67807
G1 X68.014 Y193.34 E12.70926
G1 X67.349 Y193.124 E12.73252
G1 X67.033 Y193.01 E12.74369
G1 X66.165 Y192.655 E12.77488
G1 X65.408 Y192.27 E12.80313
G1 X65.304 Y192.212 E12.80709
G1 X64.505 Y191.721 E12.83828
G1 X63.913 Y191.291 E12.86262
G1 X63.626 Y191.068 E12.8747
G1 X62.91 Y190.462 E12.9059
G1 X62.249 Y189.796 E12.93711
G1 X61.509 Y188.893 E12.97594
G1 X61.368 Y188.701 E12.98387
G1 X60.846 Y187.922 E13.01506
G1 X60.391 Y187.102 E13.04625
G1 X60.056 Y186.364 E13.0732
G1 X59.942 Y186.086 E13.0832
G1 X59.624 Y185.203 E13.11441
G1 X59.382 Y184.297 E13.1456
G1 X59.222 Y183.41 E13.17558
G1 X59.193 Y183.199 E13.18266
G1 X59.138 Y182.722 E13.19863
G1 X59 Y181.236 E13.24827
G1 X58.154 Y171.714 E13.56622
G1 X58.018 Y170.221 E13.61608
G1 X47.571 Y52.776 E17.53774
G1 X47.376 Y51.005 E17.597
G1 X47.361 Y50.786 E17.6043
G1 X47.146 Y48.688 E17.67445
G1 X47.023 Y47.302 E17.72073
G1 X47.006 Y47.082 E17.72807
G1 X46.931 Y45.988 E17.76454
G1 X46.907 Y45.051 E17.79572
G1 X46.962 Y44.115 E17.8269
G1 X47.098 Y43.187 E17.8581
G1 X47.311 Y42.273 E17.88931
G1 X47.602 Y41.382 E17.92049
G1 X47.968 Y40.518 E17.95169
G1 X48.406 Y39.689 E17.98288
G1 X48.913 Y38.9 E18.01407
G1 X49.486 Y38.157 E18.04528
G0 F6000 X49.89 Y38.299
G1 F1200 X50.523 Y37.629 E18.07594
G1 X51.211 Y37.017 E18.10656
G1 X51.949 Y36.468 E18.13716
G1 X52.732 Y35.984 E18.16777
G1 X53.555 Y35.57 E18.19841
G1 X54.41 Y35.229 E18.22903
G1 X55.291 Y34.963 E18.25964
G1 X56.193 Y34.775 E18.29028
G1 X57.107 Y34.666 E18.3209
G1 X57.729 Y34.637 E18.34161
G1 X58.573 Y34.623 E18.36968
G1 X86.761 Y34.621 E19.30722
G1 X89.387 Y34.584 E19.39457
G1 X91.896 Y34.477 E19.4781
G1 X94.384 Y34.301 E19.56105
G1 X97.994 Y33.923 E19.68178
G1 X98.131 Y33.906 E19.68637
G1 X98.948 Y33.837 E19.71364
G1 X99.364 Y33.824 E19.72748
G1 X100.06 Y33.816 E19.75063
G1 X120.2 Y33.815 E20.42049
G1 X122.826 Y33.778 E20.50784
G1 X125.334 Y33.671 E20.59134
G1 X127.838 Y33.494 E20.67483
G1 X130.384 Y33.241 E20.75992
G1 X132.872 Y32.922 E20.84335
G1 X135.368 Y32.531 E20.92738
G1 X137.864 Y32.066 E21.01183
G1 X140.333 Y31.535 E21.09583
G1 X142.777 Y30.936 E21.17952
G1 X144.094 Y30.591 E21.2248
G1 X144.436 Y30.508 E21.23651
G1 X144.874 Y30.409 E21.25144
G1 X145.954 Y30.223 E21.28789
G1 X146.088 Y30.207 E21.29238
G1 X146.816 Y30.145 E21.31668
G1 X147.036 Y30.134 E21.32401
G1 X147.41 Y30.122 E21.33645
G1 X148.025 Y30.113 E21.35691
G1 X148.344 Y30.113 E21.36752
G1 X149.832 Y30.136 E21.41702
G1 X150.344 Y30.151 E21.43405
G1 X151.902 Y30.162 E21.48587
G1 X153.977 Y30.139 E21.55489
G1 X154.981 Y30.116 E21.58829
G1 X155.353 Y30.114 E21.60067
G1 X155.593 Y30.117 E21.60865
G1 X156.366 Y30.155 E21.63439
G1 X156.681 Y30.182 E21.64491
G1 X157.827 Y30.343 E21.6834
G1 X158.045 Y30.386 E21.69079
G1 X158.996 Y30.62 E21.72336
G1 X159.338 Y30.721 E21.73522
G1 X160.209 Y31.02 E21.76585
G1 X160.849 Y31.296 E21.78903
G1 X160.934 Y31.336 E21.79216
G1 X161.392 Y31.565 E21.80919
G1 X161.618 Y31.685 E21.8177
G1 X162.412 Y32.152 E21.84834
G1 X163.186 Y32.704 E21.87996
G1 X163.371 Y32.849 E21.88777
G1 X164.07 Y33.448 E21.91839
G1 X164.715 Y34.105 E21.94901
G1 X165.106 Y34.566 E21.96912
G1 X165.283 Y34.787 E21.97854
G1 X165.826 Y35.53 E22.00915
G1 X166.304 Y36.317 E22.03977
G1 X166.693 Y37.104 E22.06897
G1 X166.786 Y37.313 E22.07658
G1 X167.124 Y38.169 E22.10719
G1 X167.386 Y39.052 E22.13782
G1 X167.517 Y39.648 E22.15812
G1 X167.546 Y39.801 E22.1633
G1 X167.706 Y41.04 E22.20485
G1 X167.769 Y41.969 E22.23582
G1 X168.289 Y51.646 E22.55814
G1 X168.422 Y54.156 E22.64174
G1 X168.438 Y54.417 E22.65044
G1 X175.244 Y180.843 E26.86147
G1 X175.274 Y181.608 E26.88694
G1 X175.27 Y182.528 E26.91754
G1 X175.186 Y183.445 E26.94816
G1 X175.023 Y184.351 E26.97878
G1 X174.782 Y185.24 E27.00942
G1 X174.465 Y186.104 E27.04003
G1 X174.074 Y186.938 E27.07066
G1 X173.612 Y187.734 E27.10127
G1 X173.083 Y188.487 E27.13188
G1 X172.49 Y189.192 E27.16252
G1 X171.839 Y189.842 E27.19312
G1 X171.133 Y190.434 E27.22376
G1 X170.379 Y190.962 E27.25438
G1 X169.582 Y191.423 E27.285
G1 X168.748 Y191.812 E27.31561
G1 X167.883 Y192.128 E27.34624
G1 X166.994 Y192.368 E27.37687
G1 X166.088 Y192.529 E27.40747
G1 X164.894 Y192.621 E27.4473
G1 X163.892 Y192.641 E27.48064
G1 X163.68 Y192.643 E27.48769
G1 X138.887 Y192.642 E28.31231
G1 X138.183 Y192.632 E28.33572
G1 X137.264 Y192.579 E28.36634
G1 X136.353 Y192.446 E28.39696
G1 X135.667 Y192.292 E28.42035
G1 X132.996 Y191.598 E28.51213
G1 X130.529 Y191.031 E28.59633
G1 X128.062 Y190.538 E28.68
G1 X125.558 Y190.111 E28.76449
G1 X123.073 Y189.758 E28.84797
G1 X120.538 Y189.472 E28.93282
G1 X118.016 Y189.258 E29.017
G1 X115.527 Y189.118 E29.09992
G1 X112.974 Y189.047 E29.18486
G1 X110.462 Y189.049 E29.26841
G1 X107.916 Y189.122 E29.35313
G1 X105.387 Y189.266 E29.43738
G1 X102.884 Y189.481 E29.52093
G1 X100.347 Y189.77 E29.60586
G1 X97.882 Y190.122 E29.68868
G1 X95.376 Y190.553 E29.77325
G1 X92.906 Y191.048 E29.85704
G1 X90.45 Y191.616 E29.94088
G1 X87.974 Y192.262 E30.02599
G1 X86.976 Y192.557 E30.0606
G1 X86.799 Y192.601 E30.06667
G1 X85.514 Y192.969 E30.11113
G1 X85.119 Y193.074 E30.12472
G1 X84.218 Y193.264 E30.15535
G1 X83.585 Y193.35 E30.1766
G1 X83.269 Y193.383 E30.18716
G1 X82.314 Y193.439 E30.21898
G1 X81.504 Y193.449 E30.24592
G1 X80.306 Y193.447 E30.28577
G1 X78.543 Y193.422 E30.34441
G1 X77.205 Y193.412 E30.38892
G1 X76.305 Y193.411 E30.41885
G1 X74.002 Y193.444 E30.49546
G1 X73.513 Y193.448 E30.51172
G1 X72.097 Y193.447 E30.55882
G1 X71.392 Y193.437 E30.58227
G1 X70.793 Y193.412 E30.60221
G1 X70.553 Y193.395 E30.61021
G1 X69.223 Y193.215 E30.65485
G1 X69.003 Y193.171 E30.66231
G1 X68.109 Y192.952 E30.69293
G1 X67.485 Y192.748 E30.71476
G1 X67.169 Y192.634 E30.72593
G1 X66.317 Y192.284 E30.75657
G1 X65.603 Y191.921 E30.78321
G1 X65.499 Y191.863 E30.78717
G1 X64.715 Y191.38 E30.8178
G1 X64.158 Y190.975 E30.8407
G1 X63.871 Y190.752 E30.85279
G1 X63.169 Y190.156 E30.88342
G1 X62.522 Y189.502 E30.91402
G1 X61.831 Y188.656 E30.95035
G1 X61.69 Y188.464 E30.95827
G1 X61.178 Y187.699 E30.98889
G1 X60.734 Y186.893 E31.0195
G1 X60.427 Y186.212 E31.04434
G1 X60.313 Y185.934 E31.05433
G1 X60.001 Y185.068 E31.08495
G1 X59.765 Y184.178 E31.11557
G1 X59.619 Y183.355 E31.14338
G1 X59.59 Y183.144 E31.15046
G1 X59.537 Y182.684 E31.16586
G1 X59.399 Y181.201 E31.2154
G1 X58.553 Y171.679 E31.53335
G1 X58.417 Y170.185 E31.58324
G1 X47.97 Y52.746 E35.50471
G1 X47.774 Y50.961 E35.56443
G1 X47.76 Y50.756 E35.57127
G1 X47.544 Y48.653 E35.64158
G1 X47.421 Y47.267 E35.68786
G1 X47.33 Y45.961 E35.7314
G1 X47.307 Y45.041 E35.76201
G1 X47.364 Y44.122 E35.79264
G1 X47.5 Y43.211 E35.82327
G1 X47.715 Y42.316 E35.85389
G1 X48.007 Y41.443 E35.8845
G1 X48.373 Y40.598 E35.91513
G1 X48.812 Y39.789 E35.94575
G1 X49.319 Y39.02 E35.97638
G1 X49.89 Y38.299 E36.00697
G0 F6000 X50.295 Y38.444
G1 F1200 X50.926 Y37.798 E36.03701
G1 X51.611 Y37.209 E36.06705
G1 X52.346 Y36.684 E36.0971
G1 X53.124 Y36.226 E36.12712
G1 X53.94 Y35.838 E36.15718
G1 X54.786 Y35.524 E36.18719
G1 X55.658 Y35.287 E36.21724
G1 X56.547 Y35.127 E36.24729
G1 X57.736 Y35.037 E36.28695
G1 X58.58 Y35.023 E36.31502
G1 X86.767 Y35.021 E37.25253
G1 X89.374 Y34.984 E37.33924
G1 X91.941 Y34.875 E37.4247
G1 X94.397 Y34.701 E37.50659
G1 X98.083 Y34.315 E37.62986
G1 X98.18 Y34.303 E37.63311
G1 X98.966 Y34.237 E37.65934
G1 X99.369 Y34.224 E37.67275
G1 X100.06 Y34.216 E37.69574
G1 X120.206 Y34.215 E38.3658
G1 X122.813 Y34.178 E38.45252
G1 X125.378 Y34.069 E38.5379
G1 X127.869 Y33.893 E38.62096
G1 X130.407 Y33.64 E38.70579
G1 X132.948 Y33.315 E38.791
G1 X135.432 Y32.926 E38.87462
G1 X137.95 Y32.457 E38.95981
G1 X140.44 Y31.921 E39.04453
G1 X142.884 Y31.322 E39.12822
G1 X144.195 Y30.978 E39.1733
G1 X144.524 Y30.898 E39.18456
G1 X144.962 Y30.799 E39.1995
G1 X146.002 Y30.62 E39.2346
G1 X146.136 Y30.604 E39.23909
G1 X146.836 Y30.545 E39.26245
G1 X147.056 Y30.534 E39.26978
G1 X147.416 Y30.522 E39.28176
G1 X148.031 Y30.513 E39.30221
G1 X148.338 Y30.513 E39.31242
G1 X149.826 Y30.536 E39.36192
G1 X150.329 Y30.551 E39.37866
G1 X151.907 Y30.562 E39.43114
G1 X153.99 Y30.539 E39.50043
G1 X154.99 Y30.516 E39.5337
G1 X155.348 Y30.514 E39.54561
G1 X155.588 Y30.517 E39.55359
G1 X156.332 Y30.553 E39.57836
G1 X156.647 Y30.58 E39.58888
G1 X157.75 Y30.736 E39.62593
G1 X157.968 Y30.779 E39.63332
G1 X158.883 Y31.004 E39.66466
G1 X159.225 Y31.105 E39.67652
G1 X160.079 Y31.399 E39.70656
G1 X160.679 Y31.658 E39.7283
G1 X160.764 Y31.698 E39.73142
G1 X161.204 Y31.918 E39.74778
G1 X161.43 Y32.038 E39.75629
G1 X162.209 Y32.497 E39.78637
G1 X162.939 Y33.019 E39.81622
G1 X163.124 Y33.164 E39.82403
G1 X163.81 Y33.752 E39.85408
G1 X164.44 Y34.398 E39.8841
G1 X164.793 Y34.816 E39.90229
G1 X164.97 Y35.037 E39.91171
G1 X165.503 Y35.766 E39.94175
G1 X165.969 Y36.539 E39.97177
G1 X166.328 Y37.266 E39.99873
G1 X166.421 Y37.475 E40.00634
G1 X166.751 Y38.316 E40.03639
G1 X167.006 Y39.182 E40.06642
G1 X167.124 Y39.722 E40.0848
G1 X167.153 Y39.875 E40.08998
G1 X167.306 Y41.068 E40.12999
G1 X167.369 Y41.99 E40.16072
G1 X174.844 Y180.858 E44.78618
G1 X174.874 Y181.623 E44.81164
G1 X174.87 Y182.526 E44.84168
G1 X174.785 Y183.426 E44.87174
G1 X174.621 Y184.314 E44.90178
G1 X174.38 Y185.184 E44.9318
G1 X174.062 Y186.029 E44.96183
G1 X173.671 Y186.843 E44.99187
G1 X173.21 Y187.62 E45.02192
G1 X172.681 Y188.352 E45.05196
G1 X172.09 Y189.035 E45.082
G1 X171.441 Y189.662 E45.11201
G1 X170.738 Y190.23 E45.14207
G1 X169.989 Y190.734 E45.1721
G1 X169.197 Y191.169 E45.20215
G1 X168.371 Y191.533 E45.23217
G1 X167.515 Y191.822 E45.26222
G1 X166.637 Y192.034 E45.29226
G1 X165.744 Y192.168 E45.3223
G1 X164.886 Y192.221 E45.35089
G1 X163.884 Y192.241 E45.38422
G1 X163.68 Y192.243 E45.39101
G1 X138.893 Y192.242 E46.21543
G1 X138.189 Y192.232 E46.23884
G1 X137.288 Y192.179 E46.26886
G1 X136.394 Y192.047 E46.29892
G1 X135.768 Y191.905 E46.32027
G1 X133.089 Y191.208 E46.41234
G1 X130.625 Y190.643 E46.49642
G1 X128.13 Y190.144 E46.58105
G1 X125.616 Y189.715 E46.66587
G1 X123.102 Y189.359 E46.75032
G1 X120.616 Y189.077 E46.83354
G1 X118.039 Y188.859 E46.91956
G1 X115.524 Y188.718 E47.00334
G1 X112.985 Y188.647 E47.08782
G1 X110.45 Y188.649 E47.17213
G1 X107.882 Y188.722 E47.25758
G1 X105.398 Y188.864 E47.34033
G1 X102.808 Y189.086 E47.42679
G1 X100.312 Y189.371 E47.51035
G1 X97.835 Y189.725 E47.59357
G1 X95.295 Y190.161 E47.67929
G1 X92.809 Y190.66 E47.76362
G1 X90.331 Y191.233 E47.84821
G1 X87.915 Y191.863 E47.93126
G1 X86.863 Y192.174 E47.96774
G1 X86.667 Y192.223 E47.97446
G1 X85.404 Y192.584 E48.01815
G1 X85.02 Y192.687 E48.03138
G1 X84.136 Y192.872 E48.06141
G1 X83.543 Y192.952 E48.08132
G1 X83.227 Y192.985 E48.09188
G1 X82.308 Y193.039 E48.1225
G1 X81.504 Y193.049 E48.14925
G1 X80.311 Y193.047 E48.18893
G1 X78.547 Y193.022 E48.2476
G1 X77.208 Y193.012 E48.29214
G1 X76.3 Y193.011 E48.32234
G1 X73.998 Y193.044 E48.39891
G1 X73.509 Y193.048 E48.41518
G1 X72.102 Y193.047 E48.46197
G1 X71.397 Y193.037 E48.48542
G1 X70.821 Y193.013 E48.5046
G1 X70.581 Y192.996 E48.5126
