;FLAVOR:Marlin
;TIME:6992
;Filament used: 5.68115m
;Layer height: 0.2
;MINX:22.013
;MINY:22.048
;MINZ:0.2
;MAXX:217.371
;MAXY:217.371
;MAXZ:9.6
;Generated with Cura_SteamEngine master
M140 S50
M105
M190 S50
M104 S200
M105
M109 S200
M82 ;absolute extrusion mode
; Ender 3 Custom Start G-code
G92 E0 ; Reset Extruder
G28 ; Home all axes
G1 Z2.0 F3000 ; Move Z Axis up little to prevent scratching of Heat Bed
G1 X0.1 Y20 Z0.3 F5000.0 ; Move to start position
G1 X0.1 Y200.0 Z0.3 F1500.0 E15 ; Draw the first line
G1 X0.4 Y200.0 Z0.3 F5000.0 ; Move to side a little
G1 X0.4 Y20 Z0.3 F1500.0 E30 ; Draw the second line
G92 E0 ; Reset Extruder
G1 Z2.0 F3000 ; Move Z Axis up little to prevent scratching of Heat Bed
G1 X5 Y20 Z0.3 F5000.0 ; Move over to prevent blob squish
G92 E0
G92 E0
G1 F2700 E-5
;LAYER_COUNT:48
;LAYER:0
M107
G0 F6000 X25.223 Y25.289 Z0.2
;TYPE:SKIRT
G1 F2700 E0
G1 F1200 X25.912 Y24.653 E0.03119
G1 X26.653 Y24.078 E0.06238
G1 X27.44 Y23.568 E0.09357
G1 X28.268 Y23.127 E0.12478
G1 X29.13 Y22.758 E0.15596
G1 X30.021 Y22.464 E0.18717
G1 X30.933 Y22.246 E0.21836
G1 X31.861 Y22.108 E0.24956
G1 X32.797 Y22.048 E0.28076
G1 X33.734 Y22.069 E0.31193
G1 X34.667 Y22.17 E0.34314
G1 X35.587 Y22.349 E0.37432
G1 X36.489 Y22.606 E0.40551
G1 X37.366 Y22.94 E0.43672
G1 X38.211 Y23.346 E0.4679
G1 X39.018 Y23.823 E0.49908
G1 X39.782 Y24.368 E0.5303
G1 X40.656 Y25.125 E0.56875
G1 X41.29 Y25.736 E0.59804
G1 X56.103 Y40.547 E1.29475
G1 X57.996 Y42.387 E1.38255
G1 X59.812 Y44.056 E1.46459
G1 X61.75 Y45.736 E1.54989
G1 X63.683 Y47.321 E1.63304
G1 X65.679 Y48.864 E1.71695
G1 X67.707 Y50.341 E1.80039
G1 X69.81 Y51.784 E1.88522
G1 X71.904 Y53.137 E1.96814
G1 X74.046 Y54.435 E2.05144
G1 X76.228 Y55.675 E2.13492
G1 X78.475 Y56.869 E2.21955
G1 X80.713 Y57.978 E2.30262
G1 X83.009 Y59.036 E2.38671
G1 X85.353 Y60.036 E2.47147
G1 X87.657 Y60.945 E2.55385
G1 X90.031 Y61.804 E2.63781
G1 X92.415 Y62.59 E2.72131
G1 X94.837 Y63.314 E2.80538
G1 X97.259 Y63.964 E2.88879
G1 X99.775 Y64.564 E2.97482
G1 X101.33 Y64.895 E3.0277
G1 X102.759 Y65.188 E3.07621
G1 X103.115 Y65.267 E3.08834
G1 X103.353 Y65.324 E3.09648
G1 X103.727 Y65.42 E3.10933
G1 X104.879 Y65.739 E3.14908
G1 X105.227 Y65.842 E3.16115
G1 X105.438 Y65.908 E3.16851
G1 X105.787 Y66.023 E3.18073
G1 X106.853 Y66.396 E3.21829
G1 X107.225 Y66.534 E3.23149
G1 X107.468 Y66.629 E3.24017
G1 X107.784 Y66.758 E3.25152
G1 X108.828 Y67.204 E3.28928
G1 X109.2 Y67.371 E3.30284
G1 X109.412 Y67.471 E3.31064
G1 X109.715 Y67.62 E3.32187
G1 X110.733 Y68.139 E3.35987
G1 X111.059 Y68.312 E3.37215
G1 X111.258 Y68.422 E3.37971
G1 X111.587 Y68.612 E3.39235
G1 X112.584 Y69.209 E3.431
G1 X112.892 Y69.4 E3.44305
G1 X113.072 Y69.516 E3.45017
G1 X113.383 Y69.724 E3.46262
G1 X114.343 Y70.39 E3.50148
G1 X114.667 Y70.624 E3.51477
G1 X114.906 Y70.803 E3.5247
G1 X115.177 Y71.012 E3.53609
G1 X115.967 Y71.643 E3.56971
G1 X116.231 Y71.861 E3.5811
G1 X116.419 Y72.021 E3.58931
G1 X116.714 Y72.281 E3.60239
G1 X117.604 Y73.095 E3.64251
G1 X117.876 Y73.352 E3.65495
G1 X118.068 Y73.54 E3.66389
G1 X118.331 Y73.807 E3.67636
G1 X119.058 Y74.569 E3.71138
G1 X119.3 Y74.831 E3.72325
G1 X119.494 Y75.048 E3.73293
G1 X119.745 Y75.339 E3.74571
G1 X120.468 Y76.207 E3.78328
G1 X120.719 Y76.52 E3.79663
G1 X120.913 Y76.771 E3.80718
G1 X121.113 Y77.037 E3.81825
G1 X121.703 Y77.85 E3.85166
G1 X121.914 Y78.152 E3.86391
G1 X122.062 Y78.371 E3.8727
G1 X122.266 Y78.684 E3.88513
G1 X122.916 Y79.72 E3.92581
G1 X123.139 Y80.091 E3.9402
G1 X123.24 Y80.267 E3.94695
G1 X123.393 Y80.543 E3.95745
G1 X124.168 Y81.987 E4.01196
G1 X125.41 Y84.231 E4.09726
G1 X126.714 Y86.433 E4.18238
G1 X128.045 Y88.545 E4.26541
G1 X129.446 Y90.633 E4.34904
G1 X130.91 Y92.688 E4.43296
G1 X132.415 Y94.677 E4.51592
G1 X134.019 Y96.678 E4.60122
G1 X135.609 Y98.553 E4.68298
G1 X137.303 Y100.435 E4.7672
G1 X139.79 Y103.022 E4.88656
G1 X209.096 Y172.328 E8.1465
G1 X209.24 Y172.475 E8.15334
G1 X210.42 Y173.7 E8.20992
G1 X210.69 Y173.99 E8.22309
G1 X210.983 Y174.317 E8.2377
G1 X211.33 Y174.723 E8.25546
G1 X211.65 Y175.117 E8.27234
G1 X211.843 Y175.362 E8.28272
G1 X212.259 Y175.905 E8.30547
G1 X212.512 Y176.248 E8.31964
G1 X212.656 Y176.453 E8.32798
G1 X212.86 Y176.75 E8.33996
G1 X213.024 Y176.996 E8.34979
G1 X213.383 Y177.55 E8.37175
G1 X213.556 Y177.825 E8.38256
G1 X213.661 Y177.998 E8.38929
G1 X213.799 Y178.233 E8.39835
G1 X213.959 Y178.512 E8.40905
G1 X214.081 Y178.731 E8.41739
G1 X214.399 Y179.316 E8.43953
G1 X214.542 Y179.586 E8.44969
G1 X214.605 Y179.71 E8.45432
G1 X214.733 Y179.972 E8.46402
G1 X214.886 Y180.294 E8.47588
G1 X215.008 Y180.559 E8.48558
G1 X215.296 Y181.209 E8.50923
G1 X215.439 Y181.547 E8.52143
G1 X215.562 Y181.858 E8.53256
G1 X215.698 Y182.215 E8.54526
G1 X215.788 Y182.46 E8.55394
G1 X216.005 Y183.073 E8.57557
G1 X216.124 Y183.428 E8.58802
G1 X216.235 Y183.786 E8.60049
G1 X216.33 Y184.108 E8.61166
G1 X216.408 Y184.385 E8.62123
G1 X216.586 Y185.052 E8.64419
G1 X216.662 Y185.353 E8.65452
G1 X216.758 Y185.774 E8.66888
G1 X216.822 Y186.078 E8.67921
G1 X216.874 Y186.341 E8.68813
G1 X217.009 Y187.07 E8.71279
G1 X217.081 Y187.507 E8.72752
G1 X217.121 Y187.787 E8.73692
G1 X217.165 Y188.134 E8.74856
G1 X217.193 Y188.378 E8.75673
G1 X217.263 Y189.05 E8.7792
G1 X217.29 Y189.355 E8.78938
G1 X217.321 Y189.805 E8.80438
G1 X217.34 Y190.172 E8.81661
G1 X217.352 Y190.468 E8.82646
G1 X217.368 Y191.112 E8.84789
G1 X217.371 Y191.46 E8.85946
G1 X217.366 Y191.837 E8.872
G1 X217.356 Y192.198 E8.88401
G1 X217.344 Y192.481 E8.89343
G1 X217.31 Y193.116 E8.91458
G1 X217.29 Y193.423 E8.92482
G1 X217.274 Y193.619 E8.93136
G1 X217.247 Y193.898 E8.94068
G1 X217.209 Y194.252 E8.95252
G1 X217.177 Y194.524 E8.96163
G1 X217.092 Y195.165 E8.98314
G1 X217.027 Y195.591 E8.99747
G1 X216.977 Y195.881 E9.00726
G1 X216.909 Y196.243 E9.01951
G1 X216.861 Y196.484 E9.02768
G1 X216.716 Y197.171 E9.05104
G1 X216.583 Y197.729 E9.07011
G1 X216.464 Y198.176 E9.0855
G1 X216.379 Y198.476 E9.09587
G1 X216.176 Y199.16 E9.1196
G1 X216.073 Y199.488 E9.13104
G1 X215.944 Y199.869 E9.14441
G1 X215.844 Y200.15 E9.15433
G1 X215.751 Y200.401 E9.16324
G1 X215.504 Y201.045 E9.18618
G1 X215.39 Y201.332 E9.19645
G1 X215.328 Y201.481 E9.20182
G1 X215.201 Y201.773 E9.21241
G1 X215.051 Y202.106 E9.22456
G1 X214.951 Y202.322 E9.23247
G1 X214.664 Y202.924 E9.25465
G1 X214.463 Y203.326 E9.2696
G1 X214.337 Y203.564 E9.27856
G1 X214.156 Y203.896 E9.29114
G1 X214.017 Y204.144 E9.30059
G1 X213.677 Y204.731 E9.32315
G1 X213.439 Y205.125 E9.33846
G1 X213.294 Y205.353 E9.34745
G1 X213.108 Y205.639 E9.3588
G1 X212.95 Y205.876 E9.36827
G1 X212.571 Y206.427 E9.39051
G1 X212.331 Y206.762 E9.40422
G1 X212.146 Y207.007 E9.41443
G1 X211.733 Y207.538 E9.43681
G1 X211.325 Y208.042 E9.45837
G1 X211.02 Y208.403 E9.47409
G1 X210.867 Y208.576 E9.48177
G1 X210.587 Y208.886 E9.49567
G1 X210.406 Y209.082 E9.50454
G1 X209.967 Y209.545 E9.52576
G1 X209.7 Y209.817 E9.53844
G1 X209.421 Y210.089 E9.5514
G1 X209.179 Y210.318 E9.56248
G1 X208.976 Y210.505 E9.57166
G1 X208.487 Y210.945 E9.59354
G1 X208.195 Y211.198 E9.60639
G1 X207.898 Y211.445 E9.61924
G1 X207.645 Y211.649 E9.63005
G1 X207.432 Y211.816 E9.63905
G1 X206.858 Y212.256 E9.6631
G1 X206.55 Y212.484 E9.67585
G1 X206.307 Y212.655 E9.68573
G1 X206.01 Y212.859 E9.69772
G1 X205.749 Y213.033 E9.70815
G1 X205.097 Y213.454 E9.73396
G1 X204.579 Y213.769 E9.75413
G1 X204.223 Y213.972 E9.76776
G1 X204.019 Y214.085 E9.77551
G1 X203.407 Y214.417 E9.79867
G1 X203.039 Y214.608 E9.81246
G1 X202.769 Y214.741 E9.82247
G1 X202.47 Y214.883 E9.83348
G1 X202.209 Y215.003 E9.84304
G1 X201.557 Y215.292 E9.86676
G1 X201.16 Y215.46 E9.88109
G1 X200.866 Y215.577 E9.89162
G1 X200.548 Y215.698 E9.90294
G1 X200.302 Y215.788 E9.91165
G1 X199.705 Y215.999 E9.93271
G1 X199.362 Y216.114 E9.94474
G1 X198.987 Y216.231 E9.95781
G1 X198.667 Y216.326 E9.96891
G1 X198.368 Y216.41 E9.97924
G1 X197.7 Y216.588 E10.00223
G1 X197.416 Y216.66 E10.01198
G1 X196.987 Y216.758 E10.02661
G1 X196.683 Y216.822 E10.03694
G1 X196.42 Y216.874 E10.04586
G1 X195.691 Y217.009 E10.07052
G1 X195.324 Y217.071 E10.0829
G1 X195.002 Y217.117 E10.09372
G1 X194.681 Y217.159 E10.10449
G1 X194.378 Y217.194 E10.11463
G1 X193.687 Y217.265 E10.13773
G1 X193.407 Y217.291 E10.14709
G1 X193.225 Y217.305 E10.15316
G1 X192.91 Y217.324 E10.16365
G1 X192.557 Y217.341 E10.17541
G1 X192.314 Y217.35 E10.1835
G1 X191.661 Y217.367 E10.20522
G1 X191.304 Y217.371 E10.2171
G1 X190.91 Y217.366 E10.2302
G1 X190.554 Y217.356 E10.24205
G1 X190.274 Y217.344 E10.25137
G1 X189.64 Y217.31 E10.27249
G1 X189.329 Y217.289 E10.28285
G1 X189.122 Y217.272 E10.28976
G1 X188.849 Y217.246 E10.29888
G1 X188.532 Y217.212 E10.30949
G1 X188.258 Y217.179 E10.31867
G1 X187.595 Y217.091 E10.34091
G1 X187.182 Y217.029 E10.3548
G1 X186.874 Y216.976 E10.3652
G1 X186.513 Y216.908 E10.37741
G1 X186.262 Y216.858 E10.38593
G1 X185.575 Y216.712 E10.40929
G1 X185.244 Y216.636 E10.42058
G1 X184.844 Y216.535 E10.4343
G1 X184.544 Y216.454 E10.44464
G1 X184.275 Y216.378 E10.45394
G1 X183.616 Y216.182 E10.4768
G1 X183.273 Y216.074 E10.48876
G1 X182.917 Y215.952 E10.50128
G1 X182.544 Y215.819 E10.51445
G1 X182.289 Y215.725 E10.52349
G1 X181.717 Y215.505 E10.54387
G1 X181.4 Y215.377 E10.55525
G1 X181.001 Y215.206 E10.56968
G1 X180.671 Y215.058 E10.58171
G1 X180.424 Y214.943 E10.59077
G1 X179.611 Y214.552 E10.62078
G1 X179.502 Y214.497 E10.62484
G1 X179.195 Y214.336 E10.63637
G1 X178.848 Y214.147 E10.64951
G1 X178.601 Y214.008 E10.65894
G1 X178.041 Y213.684 E10.68046
G1 X177.755 Y213.513 E10.69154
G1 X177.408 Y213.294 E10.70519
G1 X177.119 Y213.105 E10.71667
G1 X176.895 Y212.954 E10.72566
G1 X176.315 Y212.554 E10.74909
G1 X176.075 Y212.384 E10.75887
G1 X175.938 Y212.284 E10.76452
G1 X175.708 Y212.111 E10.77409
G1 X175.24 Y211.747 E10.79381
G1 X174.705 Y211.313 E10.81672
G1 X174.36 Y211.02 E10.83178
G1 X174.14 Y210.826 E10.84153
G1 X173.793 Y210.507 E10.85721
G1 X172.459 Y209.225 E10.91874
G1 X172.303 Y209.072 E10.92601
G1 X103.033 Y139.802 E14.18426
G1 X101.161 Y137.983 E14.27108
G1 X99.279 Y136.254 E14.35608
G1 X97.409 Y134.632 E14.43841
G1 X95.435 Y133.014 E14.5233
G1 X93.474 Y131.498 E14.60574
G1 X91.429 Y130.008 E14.6899
G1 X89.326 Y128.565 E14.77473
G1 X87.232 Y127.212 E14.85765
G1 X85.09 Y125.914 E14.94095
G1 X82.9 Y124.669 E15.02474
G1 X81.952 Y124.164 E15.06046
G1 X81.817 Y124.084 E15.06568
G1 X80.916 Y123.601 E15.09969
G1 X80.588 Y123.418 E15.11218
G1 X79.604 Y122.846 E15.15003
G1 X79.302 Y122.664 E15.16176
G1 X79.134 Y122.559 E15.16835
G1 X78.806 Y122.346 E15.18136
G1 X77.795 Y121.663 E15.22194
G1 X77.475 Y121.438 E15.23495
G1 X77.276 Y121.293 E15.24314
G1 X76.988 Y121.076 E15.25513
G1 X76.142 Y120.416 E15.29082
G1 X75.859 Y120.187 E15.30293
G1 X75.635 Y120 E15.31263
G1 X75.35 Y119.754 E15.32516
G1 X74.487 Y118.982 E15.36367
G1 X74.182 Y118.699 E15.37751
G1 X74.01 Y118.533 E15.38546
G1 X73.77 Y118.294 E15.39672
G1 X72.975 Y117.478 E15.43461
G1 X72.711 Y117.197 E15.44744
G1 X72.533 Y117.001 E15.45624
G1 X72.291 Y116.726 E15.46843
G1 X71.565 Y115.871 E15.50573
G1 X71.33 Y115.584 E15.51807
G1 X71.158 Y115.367 E15.52728
G1 X70.923 Y115.06 E15.54014
G1 X70.239 Y114.132 E15.57848
G1 X70.044 Y113.859 E15.58964
G1 X69.921 Y113.681 E15.59684
G1 X69.702 Y113.352 E15.60998
G1 X69.084 Y112.385 E15.64815
G1 X68.865 Y112.027 E15.66211
G1 X68.733 Y111.802 E15.67079
G1 X68.569 Y111.512 E15.68187
G1 X68.018 Y110.504 E15.72008
G1 X67.823 Y110.13 E15.73411
G1 X67.71 Y109.903 E15.74254
G1 X67.564 Y109.599 E15.75376
G1 X67.091 Y108.571 E15.79139
G1 X66.96 Y108.275 E15.80216
G1 X66.861 Y108.042 E15.81058
G1 X66.704 Y107.652 E15.82456
G1 X66.298 Y106.585 E15.86253
G1 X66.16 Y106.2 E15.87614
G1 X66.072 Y105.94 E15.88527
G1 X65.968 Y105.616 E15.89658
G1 X65.642 Y104.545 E15.93382
G1 X65.538 Y104.182 E15.94638
G1 X65.476 Y103.95 E15.95436
G1 X65.386 Y103.59 E15.96671
G1 X65.182 Y102.707 E15.99685
G1 X64.57 Y100.222 E16.08197
G1 X63.897 Y97.79 E16.1659
G1 X63.159 Y95.384 E16.2496
G1 X62.345 Y92.979 E16.33405
G1 X61.485 Y90.655 E16.41647
G1 X60.543 Y88.316 E16.50034
G1 X59.522 Y85.975 E16.58528
G1 X58.46 Y83.714 E16.66837
G1 X57.331 Y81.479 E16.75165
G1 X56.131 Y79.261 E16.83552
G1 X54.864 Y77.069 E16.91973
G1 X53.555 Y74.947 E17.00266
G1 X52.153 Y72.81 E17.08767
G1 X50.735 Y70.777 E17.17011
G1 X49.234 Y68.749 E17.25403
G1 X47.67 Y66.757 E17.33826
G1 X46.059 Y64.821 E17.42203
G1 X44.394 Y62.931 E17.50581
G1 X42.672 Y61.083 E17.58982
G1 X41.36 Y59.744 E17.65217
G1 X25.595 Y43.977 E18.39375
G1 X25.124 Y43.491 E18.41626
G1 X24.5 Y42.791 E18.44745
G1 X23.939 Y42.039 E18.47866
G1 X23.444 Y41.243 E18.50984
G1 X23.018 Y40.407 E18.54104
G1 X22.665 Y39.538 E18.57224
G1 X22.387 Y38.643 E18.60341
G1 X22.187 Y37.726 E18.63463
G1 X22.065 Y36.797 E18.66579
G1 X22.029 Y36.207 E18.68545
G1 X22.019 Y35.822 E18.69826
G1 X22.013 Y35.279 E18.71632
G1 X22.014 Y33.544 E18.77403
G1 X22.024 Y32.88 E18.79611
G1 X22.078 Y31.944 E18.8273
G1 X22.212 Y31.016 E18.85848
G1 X22.424 Y30.102 E18.88969
G1 X22.714 Y29.21 E18.92089
G1 X23.078 Y28.346 E18.95207
G1 X23.514 Y27.516 E18.98325
G1 X24.02 Y26.726 E19.01446
G1 X24.591 Y25.982 E19.04565
G1 X25.223 Y25.289 E19.07684
G0 F6000 X25.615 Y25.464
G1 F1200 X26.301 Y24.85 E19.10747
G1 X27.037 Y24.298 E19.13806
G1 X27.819 Y23.811 E19.16871
G1 X28.64 Y23.395 E19.19932
G1 X29.494 Y23.051 E19.22994
G1 X30.375 Y22.782 E19.26058
G1 X31.275 Y22.591 E19.29118
G1 X32.189 Y22.479 E19.3218
G1 X33.109 Y22.446 E19.35242
G1 X34.029 Y22.494 E19.38306
G1 X34.94 Y22.621 E19.41366
G1 X35.838 Y22.827 E19.4443
G1 X36.714 Y23.109 E19.47491
G1 X37.562 Y23.467 E19.50552
G1 X38.376 Y23.897 E19.53614
G1 X39.15 Y24.396 E19.56677
G1 X39.877 Y24.96 E19.59738
G1 X40.379 Y25.414 E19.61989
G1 X41.013 Y26.025 E19.64917
G1 X55.824 Y40.834 E20.34579
G1 X57.712 Y42.669 E20.43336
G1 X59.563 Y44.37 E20.51697
G1 X61.476 Y46.028 E20.60117
G1 X63.452 Y47.648 E20.68616
G1 X65.428 Y49.176 E20.76923
G1 X67.484 Y50.673 E20.85382
G1 X69.571 Y52.107 E20.93804
G1 X71.685 Y53.472 E21.02174
G1 X73.862 Y54.791 E21.1064
G1 X76.022 Y56.018 E21.18902
G1 X78.316 Y57.238 E21.27544
G1 X80.533 Y58.336 E21.35773
G1 X82.834 Y59.396 E21.44199
G1 X85.185 Y60.4 E21.52702
G1 X87.523 Y61.322 E21.61061
G1 X89.907 Y62.184 E21.69492
G1 X92.28 Y62.967 E21.77803
G1 X94.733 Y63.7 E21.86319
G1 X97.167 Y64.353 E21.947
G1 X99.676 Y64.952 E22.0328
G1 X101.175 Y65.271 E22.08377
G1 X102.679 Y65.579 E22.13483
G1 X103.022 Y65.656 E22.14653
G1 X103.26 Y65.713 E22.15467
G1 X103.62 Y65.805 E22.16702
G1 X104.772 Y66.124 E22.20678
G1 X105.107 Y66.223 E22.2184
G1 X105.318 Y66.289 E22.22575
G1 X105.655 Y66.401 E22.23757
G1 X106.721 Y66.774 E22.27513
G1 X107.08 Y66.907 E22.28786
G1 X107.323 Y67.002 E22.29654
G1 X107.627 Y67.126 E22.30746
G1 X108.671 Y67.572 E22.34522
G1 X109.029 Y67.733 E22.35827
G1 X109.241 Y67.833 E22.36607
G1 X109.534 Y67.976 E22.37691
G1 X110.552 Y68.495 E22.41492
G1 X110.865 Y68.662 E22.42672
G1 X111.064 Y68.772 E22.43428
G1 X111.382 Y68.955 E22.44649
G1 X112.379 Y69.552 E22.48514
G1 X112.675 Y69.736 E22.49673
G1 X112.855 Y69.852 E22.50385
G1 X113.155 Y70.053 E22.51586
G1 X114.115 Y70.719 E22.55472
G1 X114.427 Y70.944 E22.56752
G1 X114.666 Y71.123 E22.57745
G1 X114.927 Y71.325 E22.58842
G1 X115.717 Y71.956 E22.62205
G1 X115.972 Y72.166 E22.63304
G1 X116.16 Y72.326 E22.64125
G1 X116.444 Y72.576 E22.65384
G1 X117.334 Y73.39 E22.69395
G1 X117.596 Y73.638 E22.70595
G1 X117.788 Y73.826 E22.71489
G1 X118.041 Y74.083 E22.72688
G1 X118.768 Y74.845 E22.76191
G1 X119.001 Y75.097 E22.77333
G1 X119.195 Y75.314 E22.78301
G1 X119.438 Y75.595 E22.79536
G1 X120.161 Y76.463 E22.83294
G1 X120.403 Y76.765 E22.84581
G1 X120.597 Y77.016 E22.85636
G1 X120.789 Y77.272 E22.867
G1 X121.379 Y78.085 E22.90041
G1 X121.583 Y78.376 E22.91223
G1 X121.731 Y78.595 E22.92102
G1 X121.927 Y78.896 E22.93297
G1 X122.577 Y79.932 E22.97365
G1 X122.792 Y80.29 E22.98754
G1 X122.893 Y80.466 E22.99429
G1 X123.04 Y80.732 E23.0044
G1 X123.808 Y82.163 E23.05841
G1 X125.073 Y84.449 E23.14531
G1 X126.358 Y86.618 E23.22916
G1 X127.708 Y88.76 E23.31337
G1 X129.12 Y90.866 E23.39771
G1 X130.593 Y92.933 E23.48213
